!!!!SEGMENT: pl-wtm--r-1740-m--001-010_moniuszko-stanislaw--sonety-krymskie-ostatni-sonet.krn
!!!cenid: 18xx:2917
!!!COM: Moniuszko, Stanisław
!!!COM-rismID:
!!!CDT: 1819/05/05-1872/06/04
!!!CNT: Polish
!!!GTL: Sonety krymskie
!!!OTL: Ostatni sonet
!!!OMV: 010
!!!PDT:
!!!AGN: Secular; Sonnet
!!!SMS-siglum: PL-Wtm
!!!SMS-shelfmark: R 1740/M
!!!SMS-shelfwork: 001-010 G
!!!SMS-variant:
!!!SMS-altvar:
!!!NIFC-rismSourceID: 1001096352
!!!NIFC-islandoraID:
!!!URL-pdf-islandora:
!!!URL-scan:
!!!ONB-nifc: UWAGA: w zbiorze 2 aranżacje Sonetów. Pliki nr 001-001-010 w obsadzie vl (2), vla, vlc, cb, physharmonica, pf 4hands i pliki 002-001-009 na instrumenty dęte od skanu 0088.
!!!AIN: 1 bass 1 cello 2 forte 1 physh 1 viola 2 violn
!!!key:
**kern	**dynam	**kern	**dynam	**kern	**dynam	**kern	**dynam	**kern	**dynam	**kern	**kern	**dynam	**kern	**kern	**dynam	**kern	**kern	**dynam
*part8	*part8	*part7	*part7	*part6	*part6	*part5	*part5	*part4	*part4	*part3	*part3	*part3	*part2	*part2	*part2	*part1	*part1	*part1
*staff11	*	*staff10	*	*staff9	*	*staff8	*	*staff7	*	*staff6	*staff5	*staff5	*staff4	*staff3	*staff3	*staff2	*staff1	*
*Ibass	*	*Icello	*	*Iviola	*	*Ivioln	*	*Ivioln	*	*Iforte	*Iforte	*	*Iforte	*Iforte	*	*Iphysh	*Iphysh	*
*I"CB.	*	*I"Vcello	*	*I"Vla.	*	*I"V. 2.	*	*I"V. 1.	*	*I"Fortepiano.	*I"Fortepiano.	*	*I"Fortepiano.	*I"Fortepiano.	*	*I"Physharmonica.	*I"Physharmonica.	*
*I'Cb.	*	*I'Vlc.	*	*I'Vla.	*	*I'Vl. 2	*	*I'Vl. 1	*	*I'Pf.	*I'Pf.	*	*I'Pf.	*I'Pf.	*	*I'Hrmn.	*I'Hrmn.	*
*clefF4	*	*clefF4	*	*clefC3	*	*clefG2	*	*clefG2	*	*clefF4	*clefF4	*	*clefG2	*clefG2	*	*clefF4	*clefG2	*
*Trd0c0	*	*	*	*	*	*	*	*	*	*	*	*	*	*	*	*	*	*
*k[f#c#g#]	*	*k[f#c#g#]	*	*k[f#c#g#]	*	*k[f#c#g#]	*	*k[f#c#g#]	*	*k[f#c#g#]	*k[f#c#g#]	*	*k[f#c#g#]	*k[f#c#g#]	*	*k[f#c#g#]	*k[f#c#g#]	*
*f#:	*	*f#:	*	*f#:	*	*f#:	*	*f#:	*	*f#:	*f#:	*	*f#:	*f#:	*	*f#:	*f#:	*
*M4/4	*	*M4/4	*	*M4/4	*	*M4/4	*	*M4/4	*	*M4/4	*M4/4	*	*M4/4	*M4/4	*	*M4/4	*M4/4	*
*met(c)	*	*met(c)	*	*met(c)	*	*met(c)	*	*met(c)	*	*met(c)	*met(c)	*	*met(c)	*met(c)	*	*met(c)	*met(c)	*
*all\right	*	*all\right	*	*all\right	*	*all\right	*	*all\right	*	*all\right	*all\right	*	*all\right	*all\right	*	*all\right	*all\right	*
=1	=1	=1	=1	=1	=1	=1	=1	=1	=1	=1	=1	=1	=1	=1	=1	=1	=1	=1
!	!	!	!LO:DY:rj	!	!LO:DY:rj	!	!LO:DY:rj	!LO:TX:a:i:t=Recit.	!	!	!	!	!	!	!	!	!	!
1r	.	[1E	p	[>1G#	p	[>1c#	p	1r	.	1ryy	1r	.	1r	1r	.	1r	1r	.
=2	=2	=2	=2	=2	=2	=2	=2	=2	=2	=2	=2	=2	=2	=2	=2	=2	=2	=2
1r	.	1E]	.	1G#]	.	1c#]	.	1r	.	1ryy	1ryy	.	1ryy	1ryy	.	1r	1r	.
=3	=3	=3	=3	=3	=3	=3	=3	=3	=3	=3	=3	=3	=3	=3	=3	=3	=3	=3
1r	.	2D#X/	.	2F#/	.	2c#/	.	1r	.	1ryy	1ryy	.	1ryy	1ryy	.	1r	1r	.
.	.	2BB#X/	.	2G#/	.	2d#X/	.	.	.	.	.	.	.	.	.	.	.	.
=4	=4	=4	=4	=4	=4	=4	=4	=4	=4	=4	=4	=4	=4	=4	=4	=4	=4	=4
1r	.	4r	.	4r	.	4r	.	1r	.	1r	1r	.	1r	1r	.	1r	1r	.
.	.	4C#/	.	4G#/	.	4c#/ 4e	.	.	.	.	.	.	.	.	.	.	.	.
.	.	2ryy	.	2ryy	.	2r	.	.	.	.	.	.	.	.	.	.	.	.
=5	=5	=5	=5	=5	=5	=5	=5	=5	=5	=5	=5	=5	=5	=5	=5	=5	=5	=5
*	*	*	*	*	*	*	*	*	*	*	*Xtuplet	*	*	*Xtuplet	*	*	*	*
*	*	*2\right	*	*	*	*	*	*	*	*	*ped	*	*	*ped	*	*	*	*
!	!	!	!	!	!	!	!	!	!	!	!	!	!	!LO:TX:a:i:t=a tempo Moderato.:rj	!	!	!	!
!	!	!	!	!	!	!	!	!	!	!	!	!	!	!	!LO:DY:rj	!LO:TX:t=P:problem=łuk donikąd	!	!
8E\	.	2E\	.	8r	.	8r	.	8r	.	1r	24B\LL	.	1r	24g#/LL	p	1EE [1E	1r	p
.	.	.	.	.	.	.	.	.	.	.	24G#\	.	.	24b/	.	.	.	.
*	*	*	*	*	*	*	*	*	*	*	*Xped	*	*	*	*	*	*	*
.	.	.	.	.	.	.	.	.	.	.	24E\	.	.	24ee/	.	.	.	.
!	!	!	!	!	!	!	!	!LO:TX:a:i:t=a tempo Moderato.	!	!	!	!	!	!	!	!	!	!
8r	.	.	.	8B/	.	8e/	.	8g#/	.	.	24BB\	.	.	24b/	.	.	.	.
.	.	.	.	.	.	.	.	.	.	.	24E\	.	.	24g#/	.	.	.	.
.	.	.	.	.	.	.	.	.	.	.	24G#\JJ	.	.	24e/JJ	.	.	.	.
*	*	*	*	*rep	*	*rep	*	*rep	*	*	*rep	*	*	*rep	*	*	*	*
8E\	.	.	.	8r	.	8r	.	8r	.	.	24B\LL	.	.	24g#/LL	.	.	.	.
.	.	.	.	.	.	.	.	.	.	.	24G#\	.	.	24b/	.	.	.	.
.	.	.	.	.	.	.	.	.	.	.	24E\	.	.	24ee/	.	.	.	.
8r	.	.	.	8B/	.	8e/	.	8g#/	.	.	24BB\	.	.	24b/	.	.	.	.
.	.	.	.	.	.	.	.	.	.	.	24E\	.	.	24g#/	.	.	.	.
.	.	.	.	.	.	.	.	.	.	.	24G#\JJ	.	.	24e/JJ	.	.	.	.
*	*	*	*	*Xrep	*	*Xrep	*	*Xrep	*	*	*Xrep	*	*	*Xrep	*	*	*	*
*	*	*	*	*rep	*	*rep	*	*rep	*	*	*rep	*	*	*rep	*	*	*	*
8D\	.	2D\	.	8r	.	8r	.	8r	.	.	24B\LL	.	.	24g#/LL	.	.	.	.
.	.	.	.	.	.	.	.	.	.	.	24G#\	.	.	24b/	.	.	.	.
.	.	.	.	.	.	.	.	.	.	.	24E\	.	.	24ee/	.	.	.	.
8r	.	.	.	8B/	.	8e/	.	8g#/	.	.	24BB\	.	.	24b/	.	.	.	.
.	.	.	.	.	.	.	.	.	.	.	24E\	.	.	24g#/	.	.	.	.
.	.	.	.	.	.	.	.	.	.	.	24G#\JJ	.	.	24e/JJ	.	.	.	.
*	*	*	*	*Xrep	*	*Xrep	*	*Xrep	*	*	*Xrep	*	*	*Xrep	*	*	*	*
*	*	*	*	*rep	*	*rep	*	*rep	*	*	*rep	*	*	*rep	*	*	*	*
8D\	.	.	.	8r	.	8r	.	8r	.	.	24B\LL	.	.	24g#/LL	.	.	.	.
.	.	.	.	.	.	.	.	.	.	.	24G#\	.	.	24b/	.	.	.	.
.	.	.	.	.	.	.	.	.	.	.	24E\	.	.	24ee/	.	.	.	.
8r	.	.	.	8B/	.	8e/	.	8g#/	.	.	24BB\	.	.	24b/	.	.	.	.
.	.	.	.	.	.	.	.	.	.	.	24E\	.	.	24g#/	.	.	.	.
.	.	.	.	.	.	.	.	.	.	.	24G#\JJ	.	.	24e/JJ	.	.	.	.
*	*	*	*	*Xrep	*	*Xrep	*	*Xrep	*	*	*Xrep	*	*	*Xrep	*	*	*	*
!!LO:PB:g=original
=6	=6	=6	=6	=6	=6	=6	=6	=6	=6	=6	=6	=6	=6	=6	=6	=6	=6	=6
*	*	*	*	*	*	*	*	*	*	*	*	*	*	*	*	*2\right	*	*
!	!	!	!	!	!	!	!	!	!	!	!LO:TX:t=P:problem=kreska przed nutą (raczej nie bemol)	!	!	!	!	!	!	!
8C#/	.	(2C#/	.	8r	.	8r	.	8r	.	1ryy	24c#\LL	.	1ryy	24a/LL	.	2E\]	1r	.
.	.	.	.	.	.	.	.	.	.	.	24A\	.	.	24cc#/	.	.	.	.
.	.	.	.	.	.	.	.	.	.	.	24E\	.	.	24ee/	.	.	.	.
8r	.	.	.	8A/	.	8e/	.	8a/	.	.	24C#\	.	.	24cc#/	.	.	.	.
.	.	.	.	.	.	.	.	.	.	.	24E\	.	.	24a/	.	.	.	.
.	.	.	.	.	.	.	.	.	.	.	24A\JJ	.	.	24e/JJ	.	.	.	.
*rep	*	*	*	*	*	*rep	*	*rep	*	*	*rep	*	*	*rep	*	*	*	*
8C#/	.	.	.	8r	.	8r	.	8r	.	.	24c#\LL	.	.	24a/LL	.	.	.	.
.	.	.	.	.	.	.	.	.	.	.	24A\	.	.	24cc#/	.	.	.	.
.	.	.	.	.	.	.	.	.	.	.	24E\	.	.	24ee/	.	.	.	.
8r	.	.	.	8A/	.	8e/	.	8a/	.	.	24C#\	.	.	24cc#/	.	.	.	.
.	.	.	.	.	.	.	.	.	.	.	24E\	.	.	24a/	.	.	.	.
.	.	.	.	.	.	.	.	.	.	.	24A\JJ	.	.	24e/JJ	.	.	.	.
*Xrep	*	*	*	*	*	*Xrep	*	*Xrep	*	*	*Xrep	*	*	*Xrep	*	*	*	*
*	*	*	*	*	*	*	*	*rep	*	*	*	*	*	*	*	*	*	*
8BB/	.	4BB/	.	8r	.	8r	.	8r	.	.	24B\LL	.	.	24a/LL	.	4F#\	.	.
.	.	.	.	.	.	.	.	.	.	.	24A\	.	.	24dd/	.	.	.	.
.	.	.	.	.	.	.	.	.	.	.	24F#\	.	.	24ff#/	.	.	.	.
8r	.	.	.	8A/	.	8d/	.	8a/	.	.	24D\	.	.	24dd/	.	.	.	.
.	.	.	.	.	.	.	.	.	.	.	24F#\	.	.	24a/	.	.	.	.
.	.	.	.	.	.	.	.	.	.	.	24A\JJ	.	.	24f#/JJ	.	.	.	.
*	*	*	*	*	*	*	*	*Xrep	*	*	*	*	*	*	*	*	*	*
8E\	.	4E\	.	8r	.	8r	.	8r	.	.	24B\LL	.	.	24g#/LL	.	4G#\	.	.
.	.	.	.	.	.	.	.	.	.	.	24G#\	.	.	24b/	.	.	.	.
.	.	.	.	.	.	.	.	.	.	.	24E\	.	.	24ee/	.	.	.	.
8r	.	.	.	8B/	.	8e/	.	8g#/	.	.	24BB\	.	.	24b/	.	.	.	.
.	.	.	.	.	.	.	.	.	.	.	24E\	.	.	24g#/	.	.	.	.
.	.	.	.	.	.	.	.	.	.	.	24B\JJ	.	.	24e/JJ	.	.	.	.
=7	=7	=7	=7	=7	=7	=7	=7	=7	=7	=7	=7	=7	=7	=7	=7	=7	=7	=7
8AA/	.	2AA/	.	8r	.	8r	.	8r	.	1ryy	24B\LL	.	1ryy	24a/LL	.	[<1A	1r	.
.	.	.	.	.	.	.	.	.	.	.	24A\	.	.	24b/	.	.	.	.
.	.	.	.	.	.	.	.	.	.	.	24E\	.	.	24ee/	.	.	.	.
8r	.	.	.	8E/	.	8c#/	.	8a/	.	.	24C#\	.	.	24cc#/	.	.	.	.
.	.	.	.	.	.	.	.	.	.	.	24E\	.	.	24a/	.	.	.	.
.	.	.	.	.	.	.	.	.	.	.	24A\JJ	.	.	24e/JJ	.	.	.	.
*rep	*	*	*	*	*	*	*	*	*	*	*	*	*	*	*	*	*	*
8AA/	.	.	.	8r	.	8r	.	8r	.	.	24c#\LL	.	.	24a/LL	.	.	.	.
.	.	.	.	.	.	.	.	.	.	.	24A\	.	.	24cc#/	.	.	.	.
.	.	.	.	.	.	.	.	.	.	.	24E\	.	.	24ee/	.	.	.	.
8r	.	.	.	8A/	.	8e/	.	8cc#\	.	.	24C#\	.	.	24cc#/	.	.	.	.
.	.	.	.	.	.	.	.	.	.	.	24E\	.	.	24a/	.	.	.	.
.	.	.	.	.	.	.	.	.	.	.	24A\JJ	.	.	24e/JJ	.	.	.	.
*Xrep	*	*	*	*	*	*	*	*	*	*	*rep	*	*	*rep	*	*	*	*
8F#\	.	4F#\	.	8r	.	8r	.	8r	.	.	24c#\LL	.	.	24a/LL	.	.	.	.
.	.	.	.	.	.	.	.	.	.	.	24A\	.	.	24cc#/	.	.	.	.
.	.	.	.	.	.	.	.	.	.	.	24E\	.	.	24ee/	.	.	.	.
8r	.	.	.	8A/	.	8c#/	.	8a/	.	.	24C#\	.	.	24cc#/	.	.	.	.
.	.	.	.	.	.	.	.	.	.	.	24E\	.	.	24a/	.	.	.	.
.	.	.	.	.	.	.	.	.	.	.	24A\JJ	.	.	24e/JJ	.	.	.	.
*	*	*	*	*	*	*	*	*	*	*	*Xrep	*	*	*Xrep	*	*	*	*
*	*	*	*	*	*	*	*	*	*	*	*rep	*	*	*rep	*	*	*	*
8E\	.	4E\	.	8r	.	8r	.	8r	.	.	24c#\LL	.	.	24a/LL	.	.	.	.
.	.	.	.	.	.	.	.	.	.	.	24A\	.	.	24cc#/	.	.	.	.
.	.	.	.	.	.	.	.	.	.	.	24E\	.	.	24ee/	.	.	.	.
8r	.	.	.	8A/	.	8f#/	.	8a/	.	.	24C#\	.	.	24cc#/	.	.	.	.
.	.	.	.	.	.	.	.	.	.	.	24E\	.	.	24a/	.	.	.	.
.	.	.	.	.	.	.	.	.	.	.	24A\JJ	.	.	24e/JJ	.	.	.	.
*	*	*	*	*	*	*	*	*	*	*	*Xrep	*	*	*Xrep	*	*	*	*
!!LO:PB:g=original
=8	=8	=8	=8	=8	=8	=8	=8	=8	=8	=8	=8	=8	=8	=8	=8	=8	=8	=8
*	*	*	*	*	*	*	*	*	*	*	*	*	*	*	*	*^	*	*
8Dn\	.	8Dn\L)	<	8r	.	8r	.	8r	.	1ryy	24B\LL	.	1ryy	24a/LL	.	2F#\ 2A]	1Dn	[2.B</	.
.	.	.	.	.	.	.	.	.	.	.	24A\	.	.	24dd/	.	.	.	.	.
.	.	.	.	.	.	.	.	.	.	.	24F#\	.	.	24ff#/	.	.	.	.	.
8r	.	8F#\J	.	8F#/	.	8dn/	.	8b/	.	.	24D\	.	.	24dd/	.	.	.	.	.
.	.	.	.	.	.	.	.	.	.	.	24F#\	.	.	24a/	.	.	.	.	.
.	.	.	.	.	.	.	.	.	.	.	24A\JJ	.	.	24f#/JJ	.	.	.	.	.
*rep	*	*	*	*rep	*	*rep	*	*rep	*	*	*rep	*	*	*rep	*	*	*	*	*
8D\	.	4.B\	[	8r	.	8r	.	8r	.	.	24B\LL	.	.	24a/LL	.	.	.	.	.
.	.	.	.	.	.	.	.	.	.	.	24A\	.	.	24dd/	.	.	.	.	.
.	.	.	.	.	.	.	.	.	.	.	24F#\	.	.	24ff#/	.	.	.	.	.
8r	.	.	.	8F#/	.	8d/	.	8b/	.	.	24D\	.	.	24dd/	.	.	.	.	.
.	.	.	.	.	.	.	.	.	.	.	24F#\	.	.	24a/	.	.	.	.	.
.	.	.	.	.	.	.	.	.	.	.	24A\JJ	.	.	24f#/JJ	.	.	.	.	.
*Xrep	*	*	*	*Xrep	*	*Xrep	*	*Xrep	*	*	*Xrep	*	*	*Xrep	*	*	*	*	*
*rep	*	*	*	*	*	*rep	*	*rep	*	*	*	*	*	*	*	*	*	*	*
8D\	.	.	.	8r	.	8r	.	8r	.	.	24B\LL	.	.	24gn/LL	.	2E\ 2Gn	.	.	.
.	.	.	.	.	.	.	.	.	.	.	24Gn\	.	.	24b/	.	.	.	.	.
.	.	.	.	.	.	.	.	.	.	.	24E\	.	.	24ee/	.	.	.	.	.
8r	.	(16Gn\LL	.	8Gn/	.	8d/	.	8b/	.	.	24D\	.	.	24b/	.	.	.	.	.
.	.	.	.	.	.	.	.	.	.	.	24G\	.	.	24g/	.	.	.	.	.
.	.	16E\JJ	.	.	.	.	.	.	.	.	.	.	.	.	.	.	.	.	.
.	.	.	.	.	.	.	.	.	.	.	24B\JJ	.	.	24e/JJ	.	.	.	.	.
*Xrep	*	*	*	*	*	*Xrep	*	*Xrep	*	*	*	*	*	*	*	*	*	*	*
*rep	*	*	*	*	*	*	*	*	*	*	*	*	*	*	*	*	*	*	*
!	!	!LO:TX:t=P:problem=mixed beam	!	!	!	!	!	!	!	!	!	!	!	!	!	!	!	!	!
8D\	.	8A\L)	.	8r	.	8r	.	8r	.	.	24c#\LL	.	.	24a/LL	.	.	.	4B</]	.
.	.	.	.	.	.	.	.	.	.	.	24A\	.	.	24cc#/	.	.	.	.	.
.	.	.	.	.	.	.	.	.	.	.	24G\	.	.	24ee/	.	.	.	.	.
8r	.	8AA;</J	.	[8A/	.	8e/	.	8a/	.	.	24E\	.	.	24cc#/	.	.	.	.	.
.	.	.	.	.	.	.	.	.	.	.	24A\	.	.	24a/	.	.	.	.	.
.	.	.	.	.	.	.	.	.	.	.	24c#\JJ	.	.	24g/JJ	.	.	.	.	.
*Xrep	*	*	*	*	*	*	*	*	*	*	*	*	*	*	*	*	*	*	*
*	*	*	*	*	*	*	*	*	*	*	*	*	*	*	*	*v	*v	*	*
=9	=9	=9	=9	=9	=9	=9	=9	=9	=9	=9	=9	=9	=9	=9	=9	=9	=9	=9
8D\	.	2.Dn\	.	8A/L]	.	8r	.	8r	.	1ryy	24d\LL	.	1ryy	24f#/LL	.	1F#	1r	.
.	.	.	.	.	.	.	.	.	.	.	24A\	.	.	24a/	.	.	.	.
.	.	.	.	.	.	.	.	.	.	.	24F#\	.	.	24dd/	.	.	.	.
8r	.	.	.	(8A/	.	8f#/	.	(8a/L	.	.	24D\	.	.	24ff#/	.	.	.	.
.	.	.	.	.	.	.	.	.	.	.	24F#\	.	.	24dd/	.	.	.	.
.	.	.	.	.	.	.	.	.	.	.	24A\JJ	.	.	24a/JJ	.	.	.	.
*rep	*	*	*	*	*	*	*	*	*	*	*	*	*	*	*	*	*	*
8D\	.	.	.	8A#X/)	.	8r	.	8a#X/)	.	.	24d\LL	.	.	24f#/LL	.	.	.	.
.	.	.	.	.	.	.	.	.	.	.	24A#X\	.	.	24a#X/	.	.	.	.
.	.	.	.	.	.	.	.	.	.	.	24F#\	.	.	24cc#/	.	.	.	.
8r	.	.	.	(8A#/J	.	8f#/	.	(8a#/J	.	.	24D\	.	.	24ff#/	.	.	.	.
.	.	.	.	.	.	.	.	.	.	.	24F#\	.	.	24cc#/	.	.	.	.
.	.	.	.	.	.	.	.	.	.	.	24A#\JJ	.	.	24a#/JJ	.	.	.	.
*Xrep	*	*	*	*	*	*	*	*	*	*	*	*	*	*	*	*	*	*
*rep	*	*	*	*	*	*	*	*	*	*	*	*	*	*	*	*	*	*
8D\	.	.	.	8B/L)	.	8r	.	8b/L)	.	.	24d\LL	.	.	24f#/LL	.	.	.	.
.	.	.	.	.	.	.	.	.	.	.	24B\	.	.	24b/	.	.	.	.
.	.	.	.	.	.	.	.	.	.	.	24F#\	.	.	24dd/	.	.	.	.
8r	.	.	.	8B/J	.	8f#/	.	8dd/J	.	.	24D\	.	.	24ff#/	.	.	.	.
.	.	.	.	.	.	.	.	.	.	.	24F#\	.	.	24dd/	.	.	.	.
.	.	.	.	.	.	.	.	.	.	.	24B\JJ	.	.	24b/JJ	.	.	.	.
*Xrep	*	*	*	*	*	*	*	*	*	*	*rep	*	*	*	*	*	*	*
8BB/	.	4BB/	.	8r	.	8r	.	8r	.	.	24d\LL	.	.	24f#/LL	.	.	.	.
.	.	.	.	.	.	.	.	.	.	.	24B\	.	.	24b/	.	.	.	.
.	.	.	.	.	.	.	.	.	.	.	24F#\	.	.	24dd/	.	.	.	.
8r	.	.	.	8B/	.	8d/	.	8f#/	.	.	24D\	.	.	24b/	.	.	.	.
.	.	.	.	.	.	.	.	.	.	.	24F#\	.	.	24f#/	.	.	.	.
.	.	.	.	.	.	.	.	.	.	.	24B\JJ	.	.	24d/JJ	.	.	.	.
*	*	*	*	*	*	*	*	*	*	*	*Xrep	*	*	*	*	*	*	*
!!LO:PB:g=original
=10	=10	=10	=10	=10	=10	=10	=10	=10	=10	=10	=10	=10	=10	=10	=10	=10	=10	=10
*	*	*	*	*	*	*	*	*	*	*	*	*	*	*tuplet	*	*	*	*
!	!	!	!	!	!	!	!	!	!	!	!	!	!	!LO:TX:a:i:t=2	!	!	!	!
!	!	!	!	!	!	!	!	!	!	!	!	!	!	!LO:TUP:b:problem=brak klamry	!	!	!	!
8E\	.	8E\	.	2A/	.	16c#/KL	.	16e/KL	.	8EE/	8E\ 8A 8c#	.	1r	24c#/LL	.	[>1EE [>1E	1ryy	.
.	.	.	.	.	.	.	.	.	.	.	.	.	.	24e/	.	.	.	.
.	.	.	.	.	.	8A/	.	8c#/	.	.	.	.	.	.	.	.	.	.
.	.	.	.	.	.	.	.	.	.	.	.	.	.	24a/J	.	.	.	.
!	!	!LO:TX:b:i:t=pizzi.	!	!	!	!	!	!	!	!	!	!	!	!	!	!	!	!
8r	.	8A\L	.	.	.	.	.	.	.	8r	8r	.	.	8ee'/J	.	.	.	.
.	.	.	.	.	.	8c#/	.	8a/	.	.	.	.	.	.	.	.	.	.
4r	.	8E\	.	.	.	.	.	.	.	4r	4r	.	.	4r	.	.	.	.
.	.	.	.	.	.	8c#/	.	8e/	.	.	.	.	.	.	.	.	.	.
.	.	8A\J	.	.	.	.	.	.	.	.	.	.	.	.	.	.	.	.
.	.	.	.	.	.	16e/Jk	.	16cc#/Jk	.	.	.	.	.	.	.	.	.	.
2r	.	8E\L	.	2G#/	.	16d/KL	.	16b/KL	.	2r	2r	.	.	2r	.	.	.	.
.	.	.	.	.	.	8d/	.	8e/	.	.	.	.	.	.	.	.	.	.
.	.	8G#\	.	.	.	.	.	.	.	.	.	.	.	.	.	.	.	.
.	.	.	.	.	.	8d/	.	8b/	.	.	.	.	.	.	.	.	.	.
.	.	8E\	.	.	.	.	.	.	.	.	.	.	.	.	.	.	.	.
.	.	.	.	.	.	8d/	.	8e/	.	.	.	.	.	.	.	.	.	.
.	.	8G#\J	.	.	.	.	.	.	.	.	.	.	.	.	.	.	.	.
.	.	.	.	.	.	16d/Jk	.	[16b/Jk	.	.	.	.	.	.	.	.	.	.
=11	=11	=11	=11	=11	=11	=11	=11	=11	=11	=11	=11	=11	=11	=11	=11	=11	=11	=11
*rep	*	*	*	*	*	*	*	*	*	*	*	*	*	*	*	*rep	*	*
8E\	.	8E\L	.	2A/	.	16c#/KL	.	16b/KL]	.	1ryy	1ryy	.	1ryy	1ryy	.	1EE_> 1E_>	1ryy	.
.	.	.	.	.	.	8c#/	.	8e/	.	.	.	.	.	.	.	.	.	.
8r	.	8A\	.	.	.	.	.	.	.	.	.	.	.	.	.	.	.	.
.	.	.	.	.	.	8c#/	.	8a/	.	.	.	.	.	.	.	.	.	.
4r	.	8E\	.	.	.	.	.	.	.	.	.	.	.	.	.	.	.	.
.	.	.	.	.	.	8c#/	.	8e/	.	.	.	.	.	.	.	.	.	.
.	.	8A\J	.	.	.	.	.	.	.	.	.	.	.	.	.	.	.	.
.	.	.	.	.	.	16c#/Jk	.	16a/Jk	.	.	.	.	.	.	.	.	.	.
2r	.	8E\L	.	2G#/	.	16d/KL	.	16e/KL	.	.	.	.	.	.	.	.	.	.
.	.	.	.	.	.	8d/	.	8e/	.	.	.	.	.	.	.	.	.	.
.	.	8G#\	.	.	.	.	.	.	.	.	.	.	.	.	.	.	.	.
.	.	.	.	.	.	8d/	.	8b/	.	.	.	.	.	.	.	.	.	.
.	.	8E\	.	.	.	.	.	.	.	.	.	.	.	.	.	.	.	.
.	.	.	.	.	.	8d/	.	8e/	.	.	.	.	.	.	.	.	.	.
.	.	8G#\J	.	.	.	.	.	.	.	.	.	.	.	.	.	.	.	.
.	.	.	.	.	.	16d/Jk	.	16b/Jk	.	.	.	.	.	.	.	.	.	.
*Xrep	*	*	*	*	*	*	*	*	*	*	*	*	*	*	*	*Xrep	*	*
=12	=12	=12	=12	=12	=12	=12	=12	=12	=12	=12	=12	=12	=12	=12	=12	=12	=12	=12
*rep	*	*	*	*	*	*	*	*	*	*	*	*	*	*	*	*rep	*	*
8E\	.	8E\L	.	2A/	.	16c#/KL	.	16e/KL	.	1ryy	1ryy	.	1ryy	1ryy	.	1EE_> 1E_>	1ryy	.
.	.	.	.	.	.	8c#/	.	8e/	.	.	.	.	.	.	.	.	.	.
8r	.	8A\	.	.	.	.	.	.	.	.	.	.	.	.	.	.	.	.
.	.	.	.	.	.	8e/	.	8cc#/	.	.	.	.	.	.	.	.	.	.
4r	.	8E\	.	.	.	.	.	.	.	.	.	.	.	.	.	.	.	.
.	.	.	.	.	.	8c#/	.	8e/	.	.	.	.	.	.	.	.	.	.
.	.	8A\J	.	.	.	.	.	.	.	.	.	.	.	.	.	.	.	.
.	.	.	.	.	.	16e/Jk	.	16cc#/Jk	.	.	.	.	.	.	.	.	.	.
2r	.	8E\L	.	2B/	.	16f#/KL	.	16g#/KL	.	.	.	.	.	.	.	.	.	.
.	.	.	.	.	.	8e/	.	8g#/	.	.	.	.	.	.	.	.	.	.
.	.	8B\	.	.	.	.	.	.	.	.	.	.	.	.	.	.	.	.
.	.	.	.	.	.	8g#/	.	8b/	.	.	.	.	.	.	.	.	.	.
.	.	8E\	.	.	.	.	.	.	.	.	.	.	.	.	.	.	.	.
.	.	.	.	.	.	8g#/	.	8cc#/	.	.	.	.	.	.	.	.	.	.
.	.	8B\J	.	.	.	.	.	.	.	.	.	.	.	.	.	.	.	.
.	.	.	.	.	.	16a/Jk	.	16dd/Jk	.	.	.	.	.	.	.	.	.	.
*Xrep	*	*	*	*	*	*	*	*	*	*	*	*	*	*	*	*Xrep	*	*
!!LO:PB:g=original
=13	=13	=13	=13	=13	=13	=13	=13	=13	=13	=13	=13	=13	=13	=13	=13	=13	=13	=13
8E\	.	8E\L	.	2G#/	<	16g#/KL	.	16cc#\KL	.	1r	1r	.	1r	1r	.	(>2EE/] 2E]	1ryy	.
.	.	.	.	.	.	8g#/	.	8cc#\	.	.	.	.	.	.	.	.	.	.
8r	.	8c#\	.	.	.	.	.	.	.	.	.	.	.	.	.	.	.	.
.	.	.	.	.	.	8g#/	<	8cc#\	<	.	.	.	.	.	.	.	.	.
4r	.	8E\	<	.	.	.	.	.	.	.	.	.	.	.	.	.	.	.
.	.	.	.	.	.	8g#/	.	8cc#\	.	.	.	.	.	.	.	.	.	.
.	.	8G#\J	.	.	.	.	.	.	.	.	.	.	.	.	.	.	.	.
.	.	.	.	.	.	16a/Jk	.	16dd\Jk	.	.	.	.	.	.	.	.	.	.
8E#X\	.	8E#X\L	.	4g#\	.	16b\KL	.	16cc#\KL	.	.	.	.	.	.	.	2EE#X/ 2E#X	.	.
.	.	.	.	.	.	8b\	.	8cc#\	.	.	.	.	.	.	.	.	.	.
8r	.	8c#\	.	.	.	.	.	.	.	.	.	.	.	.	.	.	.	.
.	.	.	.	.	.	8b\	.	8cc#\	.	.	.	.	.	.	.	.	.	.
4r	.	8E#\	.	[4cc#\	[[	.	.	.	.	.	.	.	.	.	.	.	.	.
.	.	.	.	.	.	8b\	.	8gg#\	.	.	.	.	.	.	.	.	.	.
.	.	8c#\J	[	.	.	.	.	.	.	.	.	.	.	.	.	.	.	.
.	.	.	.	.	.	16gg#\Jk	[	16bb\Jk	[	.	.	.	.	.	.	.	.	.
!!LO:PB:g=original
=14	=14	=14	=14	=14	=14	=14	=14	=14	=14	=14	=14	=14	=14	=14	=14	=14	=14	=14
8F#\	.	8F#\	.	8cc#\L]	.	8cc#\L	.	8cc#\L	.	1r	1r	.	1r	1r	.	4FF#/) 4F#	1ryy	.
8r	.	8r	.	16r	.	16r	.	16r	.	.	.	.	.	.	.	.	.	.
!	!	!	!	!	!LO:DY:rj	!	!LO:DY:rj	!	!LO:DY:rj	!	!	!	!	!	!	!	!	!
.	.	.	.	16f#\Jk 16a	f	16a\Jk 16ff#	f	16cc#\Jk 16aa	f	.	.	.	.	.	.	.	.	.
4r	.	4r	.	4f#\ 4a	.	8a\ 8ff#	.	8cc#\ 8aa	.	.	.	.	.	.	.	4r	.	.
.	.	.	.	.	.	8r	.	8r	.	.	.	.	.	.	.	.	.	.
2r	.	2r	.	8r	.	2r	.	2r	.	.	.	.	.	.	.	2r	.	.
.	.	.	.	8r	.	.	.	.	.	.	.	.	.	.	.	.	.	.
.	.	.	.	4r	.	.	.	.	.	.	.	.	.	.	.	.	.	.
=15	=15	=15	=15	=15	=15	=15	=15	=15	=15	=15	=15	=15	=15	=15	=15	=15	=15	=15
!	!	!LO:TX:t=P:problem=mixed beam	!	!	!	!	!	!	!	!	!	!	!	!	!	!	!	!
!	!LO:DY:rj	!	!LO:DY:rj	!	!	!	!	!	!	!	!	!LO:DY:b=2:rj	!	!	!	!	!	!
4AA/	ff	8AA/L	ff	8.r	.	8.r	.	8.r	.	4AAA/ 4AA	8.r	ff	8r	8r	.	1ryy	1ryy	.
.	.	16r	.	.	.	.	.	.	.	.	.	.	16r	16r	.	.	.	.
!	!	!	!	!	!LO:DY:rj	!	!LO:DY:rj	!	!LO:DY:rj	!	!	!	!	!	!LO:DY:rj	!	!	!
.	.	16A\Jk	.	16A/ 16f#	ff	16cc#\ 16ff#	ff	16cc#\ 16ff#	ff	.	16A\ 16c#	.	16f#/	16cc#\ 16ff#	ff	.	.	.
4r	.	4A\	.	4A/ 4f#	.	4cc#\ 4ff#	.	4cc#\ 4ff#	.	4r	4A\ 4c#	.	4f#/	4cc#\ 4ff#	.	.	.	.
2r	.	2r	.	2r	.	2r	.	2r	.	2r	2r	.	2r	2r	.	.	.	.
=16	=16	=16	=16	=16	=16	=16	=16	=16	=16	=16	=16	=16	=16	=16	=16	=16	=16	=16
!	!LO:DY:rj	!	!	!	!	!	!	!	!	!	!	!	!	!	!	!	!	!
4BB/	sff	8BB/	sff	8.r	.	8.r	.	8.r	.	4BBB/ 4BB	8.r	.	8.r	8.r	.	1ryy	1ryy	.
.	.	16r	.	.	.	.	.	.	.	.	.	.	.	.	.	.	.	.
.	.	16B\	.	16f#\ 16b	.	16d/ 16dd	.	16dd\ 16ff#	.	.	16F#\ 16B	.	16f#/	16b\ 16ff#	.	.	.	.
4r	.	8B\L	.	8f#\L 8b	.	8d/L 8dd	.	8dd\L 8ff#	.	4r	8F#\L 8B	.	8f#/L	8b\L 8ff#	.	.	.	.
.	.	16r	.	16r	.	16r	.	16r	.	.	16r	.	16r	16r	.	.	.	.
.	.	16B\Jk	.	16f#\Jk 16b	.	16dd/Jk 16bb	.	16ff#\Jk 16ddd	.	.	16B\Jk 16d	.	16f#/Jk 16b	16dd\Jk 16ff# 16ddd	.	.	.	.
2r	.	8B\	.	8f#\ 8b	.	8dd\ 8bb	.	8ff#\ 8ddd	.	2r	8B\ 8d	.	8f#/ 8b	8dd\ 8ff# 8ddd	.	.	.	.
.	.	8r	.	8r	.	8r	.	8r	.	.	8r	.	8r	8r	.	.	.	.
.	.	4r	.	4r	.	4r	.	4r	.	.	4r	.	4r	4r	.	.	.	.
=17	=17	=17	=17	=17	=17	=17	=17	=17	=17	=17	=17	=17	=17	=17	=17	=17	=17	=17
!	!	!	!LO:DY:rj	!	!	!	!	!	!	!	!	!LO:DY:b=2:rj	!	!	!	!	!	!
8C#/	sff	8C#/	sff	16r	.	16r	.	16r	.	8CC#/ 8C#	16r	sff	16r	16r	.	1ryy	1ryy	.
*	*	*	*	*	*	*	*	*	*	*	*	*	*	*8va	*	*	*	*
*	*	*	*	*	*	*	*	*	*	*	*clefG2	*	*	*	*	*	*	*
.	.	.	.	16cc#^\LL	.	16ccc#^\LL	.	16ccc#^\LL	.	.	16cc#^/LL	ff	16ccc#^\LL	16cccc#^\LL	.	.	.	.
8r	.	8r	.	16b\	.	16bb\	.	16bb\	.	8r	16b/	.	16bb\	16bbb\	.	.	.	.
.	.	.	.	16a\JJ	.	16aa\JJ	.	16aa\JJ	.	.	16a/JJ	.	16aa\JJ	16aaa\JJ	.	.	.	.
4r	.	4r	.	16g#\LL	.	16gg#\LL	.	16gg#\LL	.	4r	16g#/LL	.	16gg#\LL	16ggg#\LL	.	.	.	.
.	.	.	.	16a\	.	16aa\	.	16aa\	.	.	16a/	.	16aa\	16aaa\	.	.	.	.
.	.	.	.	16g#\	.	16gg#\	.	16gg#\	.	.	16g#/	.	16gg#\	16ggg#\	.	.	.	.
.	.	.	.	16f#\JJ	.	16ff#\JJ	.	16ff#\JJ	.	.	16f#/JJ	.	16ff#\JJ	16fff#\JJ	.	.	.	.
2r	.	16e\LL	.	16e\LL	.	16ee\LL	.	16ee\LL	.	2r	16e/LL	.	16ee\LL	16eee\LL	.	.	.	.
.	.	16f#\	.	16f#\	.	16ff#\	.	16ff#\	.	.	16f#/	.	16ff#\	16fff#\	.	.	.	.
.	.	16e\	.	16e\	.	16ee\	.	16ee\	.	.	16e/	.	16ee\	16eee\	.	.	.	.
.	.	16d\JJ	.	16d\JJ	.	16dd\JJ	.	16dd\JJ	.	.	16d/JJ	.	16dd\JJ	16ddd\JJ	.	.	.	.
.	.	16c#\LL	.	16c#/LL	.	16cc#\LL	.	16cc#\LL	.	.	16c#/LL	.	16cc#\LL	16ccc#\LL	.	.	.	.
.	.	16B\	.	16B/	.	16b\	.	16b\	.	.	16B/	.	16b\	16bb\	.	.	.	.
.	.	16A\	.	16A/	.	16a\	.	16a\	.	.	16A/	.	16a\	16aa\	.	.	.	.
.	.	16e\JJ	.	16e/JJ	.	16ee\JJ	.	16ee\JJ	.	.	16e/JJ	.	16ee\JJ	16eee\JJ	.	.	.	.
!!LO:PB:g=original
=18	=18	=18	=18	=18	=18	=18	=18	=18	=18	=18	=18	=18	=18	=18	=18	=18	=18	=18
*	*	*	*	*	*	*	*	*	*	*	*clefF4	*	*	*	*	*	*	*
1r	.	16d\LL	.	16d/LL	.	16dd\LL	.	16dd\LL	.	1r	16d\LL	.	16dd/LL	16ddd/LL	.	1r	1r	.
.	.	16c#\	.	16c#/	.	16cc#\	.	16cc#\	.	.	16c#\	.	16cc#/	16ccc#/	.	.	.	.
.	.	16B\	.	16B/	.	16b\	.	16b\	.	.	16B\	.	16b/	16bb/	.	.	.	.
.	.	16A\JJ	.	16A/JJ	.	16a\JJ	.	16a\JJ	.	.	16A\JJ	.	16a/JJ	16aa/JJ	.	.	.	.
.	.	16G#\LL	.	16G#/LL	.	16g#/LL	.	16g#/LL	.	.	16G#\LL	.	16g#/LL	16gg#/LL	.	.	.	.
.	.	16A\	.	16A/	.	16a/	.	16a/	.	.	16A\	.	16a/	16aa/	.	.	.	.
.	.	16G#\	.	16G#/	.	16g#/	.	16g#/	.	.	16G#\	.	16g#/	16gg#/	.	.	.	.
.	.	16F#\JJ	.	16F#/JJ	.	16f#/JJ	.	16f#/JJ	.	.	16F#\JJ	.	16f#/JJ	16ff#/JJ	.	.	.	.
.	.	16E\LL	.	16E/LL	.	16e/LL	.	16e/LL	.	.	16E\LL	.	16e/LL	16ee/LL	.	.	.	.
.	.	16F#\	.	16F#/	.	16f#/	.	16f#/	.	.	16F#\	.	16f#/	16ff#/	.	.	.	.
.	.	16E\	.	16E/	.	16e/	.	16e/	.	.	16E\	.	16e/	16ee/	.	.	.	.
.	.	16D\JJ	.	16D/JJ	.	16d/JJ	.	16d/JJ	.	.	16D\JJ	.	16d/JJ	16dd/JJ	.	.	.	.
.	.	16C#/LL	.	8C#'/	.	16c#/LL	.	16c#/LL	.	.	16C#/LL	.	16c#/LL	16cc#/LL	.	.	.	.
.	.	16BB/	.	.	.	16B/	.	16B/	.	.	16BB/	.	16B/	16b/	.	.	.	.
.	.	16AA/	.	8r	.	16A/	.	16A/	.	.	16AA/	.	16A/	16a/	.	.	.	.
.	.	16D/JJ	.	.	.	16d/JJ	.	16d/JJ	.	.	16D/JJ	.	16d/JJ	16dd/JJ	.	.	.	.
=19	=19	=19	=19	=19	=19	=19	=19	=19	=19	=19	=19	=19	=19	=19	=19	=19	=19	=19
1r	.	4C#/	.	2rbyy	.	2ryy	.	4c#/	.	1r	8C#/	.	8c#/	8cc#/	.	1r	1r	.
*	*	*	*	*	*	*	*	*	*	*	*	*	*	*X8va	*	*	*	*
.	.	.	.	.	.	.	.	.	.	.	8r	.	8r	8r	.	.	.	.
.	.	4r	.	.	.	.	.	4r	.	.	4r	.	4r	4r	.	.	.	.
.	.	2r	.	2F#^/	.	2G#^/	.	2B^/ 2d	.	.	2r	.	2r	2r	.	.	.	.
=20	=20	=20	=20	=20	=20	=20	=20	=20	=20	=20	=20	=20	=20	=20	=20	=20	=20	=20
!	!LO:DY:rj	!	!	!	!	!	!	!	!	!	!	!	!	!	!	!	!	!
4C#/	f	4C#/	.	2r	.	2r	.	2r	.	1r	1r	.	1r	1r	.	1r	1r	.
4r	.	4r	.	.	.	.	.	.	.	.	.	.	.	.	.	.	.	.
!	!	!	!	!	!	!	!LO:HP:t=dimnin	!	!LO:HP:a	!	!	!	!	!	!	!	!	!
2r	.	2r	.	2E#X^/	.	2G#^/	>	[2c#^/	>]	.	.	.	.	.	.	.	.	.
=21	=21	=21	=21	=21	=21	=21	=21	=21	=21	=21	=21	=21	=21	=21	=21	=21	=21	=21
*k[f#c#g#d#a#e#]	*	*k[f#c#g#d#a#e#]	*	*k[f#c#g#d#a#e#]	*	*k[f#c#g#d#a#e#]	*	*k[f#c#g#d#a#e#]	*	*k[f#c#g#d#a#e#]	*k[f#c#g#d#a#e#]	*	*k[f#c#g#d#a#e#]	*k[f#c#g#d#a#e#]	*	*k[f#c#g#d#a#e#]	*k[f#c#g#d#a#e#]	*
*F#:	*	*F#:	*	*F#:	*	*F#:	*	*F#:	*	*F#:	*F#:	*	*F#:	*F#:	*	*F#:	*F#:	*
*	*	*	*	*	*	*	*	*	*	*	*ped	*	*	*ped	*	*	*	*
!LO:TX:a:B:t=Largo.	!	!	!	!	!	!	!	!LO:TX:a:B:t=Largo	!	!	!	!	!	!LO:TX:a:B:t=Largo	!	!	!LO:TX:a:B:t=Largo	!
!	!	!	!	!	!LO:DY:rj	!	!LO:DY:rj	!	!LO:DY:rj	!	!	!	!	!LO:TX:t=P:problem=zbędna pauza 8r	!	!	!	!
4F#\	.	4F#\	.	4F#/	p	4A#/	p	4c#/]	p	2r	4r	.	4r	4r	.	[<1FF# [<1AA# [<1C# [<1F#	[>1A# [>1c# [>1f# [>1a#	pp
4r	.	4r	.	4r	.	4r	.	4r	.	.	8r	.	8r	8r	.	.	.	.
!	!	!	!	!	!	!	!	!	!	!	!	!LO:DY:t=ppp.:rj	!	!	!LO:DY:t=ppp.:rj	!	!	!
.	.	.	.	.	.	.	.	.	.	.	[<8FF#/ [>8C# [>8F#	ppp	(8A#/ 8c#	(8a#\ 8cc#	ppp	.	.	.
2r	.	2r	.	2r	.	2r	.	2r	.	2FFF#/ 2CC#	4.FF#/] 4.C#] 4.F#]	.	4.c#/) 4.f# 4.a#	4.cc#\) 4.ff# 4.aa#	.	.	.	.
!	!	!	!	!	!	!	!	!	!	!	!LO:TX:t=P:problem=brak początku łuków	!	!	!	!	!	!	!
.	.	.	.	.	.	.	.	.	.	.	[<8FF#/ [>8C# [>8F#	.	8A#/ 8c#	8a#\ 8cc#	.	.	.	.
!!LO:PB:g=original
=22	=22	=22	=22	=22	=22	=22	=22	=22	=22	=22	=22	=22	=22	=22	=22	=22	=22	=22
1r	.	1r	.	1r	.	1r	.	1r	.	2FFF#/ 2CC#	4.FF#/] 4.C#] 4.F#]	.	4.c#/ 4.f# 4.a#	4.cc#\ 4.ff# 4.aa#	.	1FF#_> 1AA#_> 1C#_> 1F#_>	1A#_> 1c#_> 1f#_> 1a#_>	.
.	.	.	.	.	.	.	.	.	.	.	[<8FF#/ [>8C# [>8F#	.	8A#/ 8c#	8a#\ 8cc#	.	.	.	.
.	.	.	.	.	.	.	.	.	.	4FFF#/ 4CC#	8FF#/L] 8C#] 8F#]	.	8c#/L 8f# 8a#	8cc#\L 8ff# 8aa#	.	.	.	.
.	.	.	.	.	.	.	.	.	.	.	16r	.	16r	16r	.	.	.	.
.	.	.	.	.	.	.	.	.	.	.	[<16FF#/Jk [>16C# [>16F#	.	16A#/Jk 16c#	16a#\Jk 16cc#	.	.	.	.
.	.	.	.	.	.	.	.	.	.	4FFF#/ 4CC#	8FF#/L] 8C#] 8F#]	.	8c#/L 8f# 8a#	8cc#\L 8ff# 8aa#	.	.	.	.
.	.	.	.	.	.	.	.	.	.	.	16r	.	16r	16r	.	.	.	.
.	.	.	.	.	.	.	.	.	.	.	[16FF#/Jk [16C# [16F#	.	16c#/Jk 16f# 16a#	16cc#\Jk 16ff# 16aa#	.	.	.	.
=23	=23	=23	=23	=23	=23	=23	=23	=23	=23	=23	=23	=23	=23	=23	=23	=23	=23	=23
*	*	*	*	*	*	*	*	*	*	*	*	*	*	*2\right	*	*	*	*
!	!	!	!LO:DY:rj	!	!LO:DY:rj	!	!LO:DY:rj	!	!	!	!	!	!	!	!	!	!	!
1r	.	[>1FF#	pp	[>1C#	pp	[>1A#	pp	4r	.	2FFF#/ 2CC#	2FF#/] 2C#] 2F#]	.	2A#/ 2c# 2f# 2a#	2cc#\ 2ff# 2aa#	.	2FF#/] 2AA#] 2C#] 2F#]	2A#/] 2c#] 2f#] 2a#]	.
!	!	!	!	!	!	!	!	!LO:TX:b:i:t=molto dolce	!	!	!	!	!	!	!	!	!	!
.	.	.	.	.	.	.	.	8r	.	.	.	.	.	.	.	.	.	.
.	.	.	.	.	.	.	.	8cc#\	.	.	.	.	.	.	.	.	.	.
*	*	*	*	*	*	*	*	*	*	*	*Xped	*	*	*Xped	*	*	*	*
.	.	.	.	.	.	.	.	8.a#^/L	.	2r	2r	.	2r	2r	.	2r	2r	.
.	.	.	.	.	.	.	.	16g#/K	.	.	.	.	.	.	.	.	.	.
.	.	.	.	.	.	.	.	8f#/	.	.	.	.	.	.	.	.	.	.
.	.	.	.	.	.	.	.	8e#/J	.	.	.	.	.	.	.	.	.	.
=24	=24	=24	=24	=24	=24	=24	=24	=24	=24	=24	=24	=24	=24	=24	=24	=24	=24	=24
*	*	*rep	*	*rep	*	*rep	*	*	*	*	*	*	*	*	*	*	*	*
1r	.	1FF#_	.	1C#_	.	1A#_	.	4.d#/	.	1ryy	1ryy	.	1ryy	1ryy	.	1ryy	1ryy	.
.	.	.	.	.	.	.	.	8c#/	.	.	.	.	.	.	.	.	.	.
.	.	.	.	.	.	.	.	(8f#/L	.	.	.	.	.	.	.	.	.	.
.	.	.	.	.	.	.	.	8g#/	.	.	.	.	.	.	.	.	.	.
.	.	.	.	.	.	.	.	8a#/	.	.	.	.	.	.	.	.	.	.
.	.	.	.	.	.	.	.	8dd#/J)	.	.	.	.	.	.	.	.	.	.
*	*	*Xrep	*	*Xrep	*	*Xrep	*	*	*	*	*	*	*	*	*	*	*	*
=25	=25	=25	=25	=25	=25	=25	=25	=25	=25	=25	=25	=25	=25	=25	=25	=25	=25	=25
*	*	*	*	*	*	*	*	*2\right	*	*	*	*	*	*	*	*	*	*
1r	.	4FF#/]	.	4C#/]	.	4A#/]	.	2cc#\	.	1ryy	1ryy	.	1ryy	1ryy	.	1ryy	1ryy	.
.	.	[>2.FF#/	.	[>2.C#/	.	[>2.A#/	.	.	.	.	.	.	.	.	.	.	.	.
.	.	.	.	.	.	.	.	8b#X\L	<	.	.	.	.	.	.	.	.	.
.	.	.	.	.	.	.	.	8cc#\	.	.	.	.	.	.	.	.	.	.
.	.	.	.	.	.	.	.	8dd#\	.	.	.	.	.	.	.	.	.	.
.	.	.	.	.	.	.	.	8ee#\J	[	.	.	.	.	.	.	.	.	.
!!LO:PB:g=original
=26	=26	=26	=26	=26	=26	=26	=26	=26	=26	=26	=26	=26	=26	=26	=26	=26	=26	=26
8.r	.	8FF#/L]	.	8C#/L]	.	8A#/L]	.	(4.ff#\	>	1ryy	1ryy	.	1ryy	1ryy	.	1ryy	1ryy	.
.	.	16r	.	16r	.	16r	.	.	.	.	.	.	.	.	.	.	.	.
16A#\	.	16C#/Jk	.	16F#/Jk	.	16c#/Jk	.	.	.	.	.	.	.	.	.	.	.	.
*2\right	*	*	*	*	*	*	*	*	*	*	*	*	*	*	*	*	*	*
2.A#\	fpp	2C#/	fpp	2.F#/	fpp	2.c#/	fpp	.	.	.	.	.	.	.	.	.	.	.
.	.	.	.	.	.	.	.	8f#/)	]	.	.	.	.	.	.	.	.	.
.	.	.	.	.	.	.	.	(8.g#/L	.	.	.	.	.	.	.	.	.	.
.	.	.	.	.	.	.	.	16a#/K	.	.	.	.	.	.	.	.	.	.
.	.	4r	.	.	.	.	.	8.b/)	.	.	.	.	.	.	.	.	.	.
.	.	.	.	.	.	.	.	16cc#/Jk	.	.	.	.	.	.	.	.	.	.
=27	=27	=27	=27	=27	=27	=27	=27	=27	=27	=27	=27	=27	=27	=27	=27	=27	=27	=27
8G#\	.	8BB/	.	8F#/	.	8B/	.	4..dd#\	<	1r	4r	.	4r	4r	.	1ryy	1ryy	.
8r	.	8r	.	8r	.	8r	.	.	.	.	.	.	.	.	.	.	.	.
!	!	!	!LO:DY:rj	!	!LO:DY:rj	!	!LO:DY:rj	!	!	!	!	!LO:DY:rj	!	!	!LO:DY:rj	!	!	!
4r	.	8.G#\L	f	8.B/L	f	8.f#/L	f	.	.	.	8.G#\L 8.B	f	8.f#/L 8.g#	8.b\L 8.dd#	f	.	.	.
.	.	16G#\Jk	.	16B/Jk	.	16f#/Jk	.	16dd#\	[ f	.	16G#\Jk 16B	.	16f#/Jk 16g#	16b\Jk 16dd#	.	.	.	.
*	*	*	*	*2\right	*	*	*	*	*	*	*	*	*	*	*	*	*	*
!	!	!	!	!LO:TX:a:t=X:color=red	!	!	!	!	!	!	!	!	!	!	!	!	!	!
2r	.	2B^\	.	2c#^\	.	(4g#^/	.	4ee#^\	.	.	4B\ 4c#	sf	4e#/ 4g#	4b\ 4ee#	sf	.	.	.
.	.	.	.	.	.	4e#/)	.	8.dd#\L	.	.	8.B\L	.	8.d#/L 8.g#	8.dd#\L	.	.	.	.
.	.	.	.	.	.	.	.	16cc#\Jk	.	.	16B\Jk 16c#	.	16e#/Jk 16g#	16cc#\Jk	.	.	.	.
=28	=28	=28	=28	=28	=28	=28	=28	=28	=28	=28	=28	=28	=28	=28	=28	=28	=28	=28
!	!	!	!	!LO:TX:b:t=diminuendo:dynamics:problem	!LO:HP:t=diminuendo	!	!	!	!	!	!	!	!	!	!	!	!	!
1r	.	2A#\	.	2c#\	>	2f#/	.	(4.cc#^\	.	1r	4.A#^\ 4.c#	.	4.f#/	(4.cc#^\	.	1ryy	1ryy	.
!	!	!	!	!	!	!	!	!LO:TX:b:t=diminuendo:dynamics:problem	!LO:HP:t=diminuendo	!	!	!LO:HP:t=diminumendo	!	!	!LO:HP:t=diminumendo	!	!	!
.	.	.	.	.	.	.	.	8ff#\	>	.	8A#\ 8c#	>	8f#/	8ff#\	>	.	.	.
*	*	*	*	*	*	*	*	*	*	*	*tremolo	*	*tremolo	*	*	*	*	*
!	!	!	!	!	!	!	!	!	!	!	!	!	!LO:TX:b:t-....	!	!	!	!	!
.	.	2G#\	.	2B/	.	2e#/	.	8ee#\L)	.	.	8G#\L 8B 8c#	.	8e#'/L	8ee#\L)	.	.	.	.
.	.	.	.	.	.	.	.	8dd#'\	.	.	8G#\ 8B 8c#	.	8e#'/	8dd#|>\	.	.	.	.
.	.	.	.	.	.	.	.	8cc#'\	.	.	8G#\ 8B 8c#	.	8e#'/	8cc#|>\	.	.	.	.
.	.	.	.	.	.	.	.	8b'\J	.	.	8G#\J 8B 8c#	.	8e#'/J	8b|>\J	.	.	.	.
*	*	*	*	*	*	*	*	*	*	*	*Xtremolo	*	*Xtremolo	*	*	*	*	*
=29	=29	=29	=29	=29	=29	=29	=29	=29	=29	=29	=29	=29	=29	=29	=29	=29	=29	=29
1r	.	2F#\	.	(4c#/	.	4f#/	.	4.a#/	.	2r	4.F#\ 4.A# 4.c#	.	4f#/	4.a#/	.	1ryy	1ryy	.
.	.	.	.	8A#/L)	.	4c#/	.	.	.	.	.	.	4r	.	.	.	.	.
.	.	.	.	8F#/J	]	.	.	(8a#/	.	.	8F#\	]	.	(8a#/	]	.	.	.
*	*	*	*	*	*	*	*	*	*	*tremolo	*tremolo	*	*	*	*	*	*	*
!	!	!	!	!	!	!	!	!	!	!LO:TX:b:t=....	!LO:TX:a:t=....	!	!	!	!	!	!	!
.	.	2BB/	.	[2F#/	.	4d#/	.	8g#/L	]	8BB'/L	8F#'\L	.	8r	8g#/L	.	.	.	.
.	.	.	.	.	.	.	.	8f#/)	.	8BB'/	8F#'\	.	8d#'/L	8f#/)	.	.	.	.
.	.	.	.	.	.	8c#'/L	.	8e#'/	.	8BB'/	8F#'\	.	8c#'/	8e#'/	.	.	.	.
.	.	.	.	.	.	8B'/J	.	8d#'/J	.	8BB'/J	8F#'\J	.	8B'/J	8d#'/J	.	.	.	.
*	*	*	*	*	*	*	*	*	*	*Xtremolo	*Xtremolo	*	*	*	*	*	*	*
!!LO:PB:g=original
=30	=30	=30	=30	=30	=30	=30	=30	=30	=30	=30	=30	=30	=30	=30	=30	=30	=30	=30
*	*	*	*	*	*	*	*	*	*	*^	*	*	*	*	*	*^	*	*
!	!	!	!	!	!	!	!	!	!	!	!	!LO:SIC:v:s=4F#\	!	!	!	!	!	!	!	!
1r	.	(4AA#/	.	(4F#/]	.	4c#/	.	(>4f#/	.	4AA#/	2rEEyy	4E#\	.	4c#/	4f#/	.	4r	4rEEyy	1r	.
*	*	*	*	*	*	*	*	*	*	*	*	*2\right	*	*	*	*	*	*	*	*
!	!	!	!	!	!	!	!	!	!	!	!	!	!LO:DY:rj	!	!	!	!	!	!	!
.	.	4AAn/	.	4En/	.	4r	.	4c#/	.	(4AAn/ 4C#	.	(2An\	p	4r	4c#/	.	([4An/	(4C#\	.	p
.	.	4DDn/	.	4F#/	.	2r	.	4cn/	.	4Dn/	4DDn/	.	.	2r	4cn/	.	4A/]	4Dn\	.	.
.	.	4GGn/)	.	4E#X/)	.	.	.	4B/)	.	4BB/)	4GGn\	4Gn\	.	.	4B/	.	4Gn/	4BB\	.	.
*	*	*	*	*	*	*	*	*	*	*v	*v	*	*	*	*	*	*	*	*	*
=31	=31	=31	=31	=31	=31	=31	=31	=31	=31	=31	=31	=31	=31	=31	=31	=31	=31	=31	=31
4F#\	.	4FF#/	.	4F#@/	.	16r	.	4A#/	.	2FF#/	16F#\LL)	.	1r	4A#/	.	[1F#X)	1C#X)	[>1A#	.
.	.	.	.	.	.	16A#/LL	.	.	.	.	(16C#\	.	.	.	.	.	.	.	.
.	.	.	.	.	.	16c#/	.	.	.	.	16A#\	.	.	.	.	.	.	.	.
.	.	.	.	.	.	16A#/JJ	.	.	.	.	16F#\JJ	.	.	.	.	.	.	.	.
4r	.	8r	.	8r@	.	16f#/LL	.	4r	.	.	16c#\LL	.	.	4r	.	.	.	.	.
.	.	.	.	.	.	16A#/	<	.	.	.	16A#\	.	.	.	.	.	.	.	.
.	.	8C#/	<	8C#/	.	16c#/	.	.	.	.	16F#\	.	.	.	.	.	.	.	.
.	.	.	.	.	.	16A#/JJ	.	.	.	.	16C#\JJ)	.	.	.	.	.	.	.	.
*	*	*	*	*	*	*tremolo	*	*	*	*	*	*	*	*	*	*	*	*	*
4F#\	.	8C#/L	.	8C#/L	.	16c#/LL	.	2r	.	2FF#/	16r	<	.	2r	.	.	.	.	.
.	.	.	.	.	.	16A#/	.	.	.	.	(16C#\LL	.	.	.	.	.	.	.	.
.	.	8D#/	.	8D#/	.	16c#/	.	.	.	.	16A#\	.	.	.	.	.	.	.	.
.	.	.	.	.	.	16A#/	.	.	.	.	16F#\JJ	.	.	.	.	.	.	.	.
4r	.	8F#/	.	8F#/	.	16c#/	.	.	.	.	16c#\LL	.	.	.	.	.	.	.	.
.	.	.	.	.	.	16A#/	.	.	.	.	16A#\	.	.	.	.	.	.	.	.
.	.	8B/J	[	8B/J	.	16c#/	.	.	.	.	16F#\	[	.	.	.	.	.	.	.
.	.	.	.	.	.	16A#/JJ	[	.	.	.	16C#\JJ)	.	.	.	.	.	.	.	.
*	*	*	*	*	*	*Xtremolo	*	*	*	*	*	*	*	*	*	*	*	*	*
=32	=32	=32	=32	=32	=32	=32	=32	=32	=32	=32	=32	=32	=32	=32	=32	=32	=32	=32	=32
4D#\	sf	(4.c#\	sf >	(>4.c#/	sf	8c#/L	.	1r	.	2DD#/	16r	.	1r	1r	.	1F#]	2C#\	2A#/]	.
!	!	!	!	!	!	!	!	!	!	!	!	!LO:DY:rj	!	!	!	!	!	!	!
.	.	.	.	.	.	.	.	.	.	.	(16C#\LL	f >	.	.	.	.	.	.	.
.	.	.	.	.	.	8A#/	>	.	.	.	16A#\	.	.	.	.	.	.	.	.
.	.	.	.	.	.	.	.	.	.	.	16F#\JJ	.	.	.	.	.	.	.	.
4r	.	.	.	.	.	8c#/	.	.	.	.	16c#\LL	.	.	.	.	.	.	.	.
.	.	.	.	.	.	.	.	.	.	.	16A#\)	.	.	.	.	.	.	.	.
.	.	8B#X\	.	8B#X/	.	8A#/J	.	.	.	.	16F#\	.	.	.	.	.	.	.	.
.	.	.	.	.	.	.	.	.	.	.	16C#\JJ	]	.	.	.	.	.	.	.
!	!LO:DY:rj	!	!	!	!	!	!	!	!	!	!	!	!	!	!	!	!	!	!
4G#\	p	8G#\L)	]	8A#/L	.	2ryy	]	.	.	2GG#/	16r	.	.	.	.	.	2D#X\	2B#X/	.
!	!	!	!	!	!	!	!	!	!	!	!	!LO:DY:rj	!	!	!	!	!	!	!
.	.	.	.	.	.	.	.	.	.	.	(16F#\LL	p	.	.	.	.	.	.	.
.	.	8F#\	.	8F#/)	.	.	.	.	.	.	16B#X\	.	.	.	.	.	.	.	.
.	.	.	.	.	.	.	.	.	.	.	16G#\JJ	.	.	.	.	.	.	.	.
!	!	!	!LO:DY:rj	!	!	!	!	!	!	!	!	!	!	!	!	!	!	!	!
4r	.	8D#\	p	8D#/	p	.	.	.	.	.	16d#\LL	.	.	.	.	.	.	.	.
.	.	.	.	.	.	.	.	.	.	.	16B#\	.	.	.	.	.	.	.	.
.	.	16E#\L	.	16E#/L	.	.	.	.	.	.	16G#\	.	.	.	.	.	.	.	.
.	.	16D#\JJ	.	16D#/JJ	.	.	.	.	.	.	16F#\JJ)	.	.	.	.	.	.	.	.
!!LO:PB:g=original
=33	=33	=33	=33	=33	=33	=33	=33	=33	=33	=33	=33	=33	=33	=33	=33	=33	=33	=33	=33
4C#/	.	2C#/	.	1ryy	.	1ryy	.	4r	.	4.C#/	16r	.	1r	1r	.	(4G#/	2E#X\	1c#	.
.	.	.	.	.	.	.	.	.	.	.	16E#\LL	.	.	.	.	.	.	.	.
.	.	.	.	.	.	.	.	.	.	.	16G#\	.	.	.	.	.	.	.	.
.	.	.	.	.	.	.	.	.	.	.	16c#\JJ	.	.	.	.	.	.	.	.
4r	.	.	.	.	.	.	.	8r	.	.	16Bn\LL	.	.	.	.	4G#/) 4B	.	.	.
.	.	.	.	.	.	.	.	.	.	.	16G#\	.	.	.	.	.	.	.	.
!	!	!	!	!	!	!	!	!	!LO:DY:rj	!	!	!	!	!	!	!	!	!	!
.	.	.	.	.	.	.	.	8c#/	p <	8r	16E#\	.	.	.	.	.	.	.	.
.	.	.	.	.	.	.	.	.	.	.	16C#\JJ	<	.	.	.	.	.	.	.
4F#\	.	8F#\L	<	.	.	.	.	8f#/L	.	2FF#/ 2C#	16r	.	.	.	.	2ryy	2F#\ 2A#	.	.
.	.	.	.	.	.	.	.	.	.	.	16A#\LL	.	.	.	.	.	.	.	.
.	.	8G#\	.	.	.	.	.	8g#/	.	.	16c#\	.	.	.	.	.	.	.	.
.	.	.	.	.	.	.	.	.	.	.	16f#\JJ	.	.	.	.	.	.	.	.
4r	.	8A#\	.	.	.	.	.	8a#/	.	.	16d#\LL	.	.	.	.	.	.	.	.
.	.	.	.	.	.	.	.	.	.	.	16c#\	.	.	.	.	.	.	.	.
.	.	8c#\J	[	.	.	.	.	8cc#/J	[	.	16A#\	.	.	.	.	.	.	.	.
.	.	.	.	.	.	.	.	.	.	.	16F#\JJ	[	.	.	.	.	.	.	.
!!LO:PB:g=original
=34	=34	=34	=34	=34	=34	=34	=34	=34	=34	=34	=34	=34	=34	=34	=34	=34	=34	=34	=34
*	*	*	*	*	*	*	*	*	*	*	*^	*	*	*	*	*	*	*^	*
!	!	!	!	!	!LO:DY:rj	!	!	!	!	!	!	!	!	!	!	!	!	!	!	!	!
4F#\	.	(4.f#\	sf >	[2C#/ [2A#	fp	[2f#/	.	(4.ff#\	sf >	2FF#/ 2C#	16rF	2.rEEyy	.	1r	1r	.	2ryy	[<1F#	2.c#/ 2.a#	2.rcyy	.
.	.	.	.	.	.	.	.	.	.	.	16A#\LL	.	f	.	.	.	.	.	.	.	.
.	.	.	.	.	.	.	.	.	.	.	16c#\	.	.	.	.	.	.	.	.	.	.
.	.	.	.	.	.	.	.	.	.	.	16a#\JJ	.	>	.	.	.	.	.	.	.	.
4r	.	.	.	.	.	.	.	.	.	.	16f#\LL	.	.	.	.	.	.	.	.	.	.
.	.	.	.	.	.	.	.	.	.	.	16d#\	.	.	.	.	.	.	.	.	.	.
.	.	8e#\	.	.	.	.	.	8ee#X\	.	.	16c#\	.	.	.	.	.	.	.	.	.	.
.	.	.	.	.	.	.	.	.	.	.	16A#\JJ	.	.	.	.	.	.	.	.	.	.
4F#\	.	8c#\L	.	8C#/L] 8A#]	.	4.f#/]	.	8cc#\L	]	2FF#/	16rF	.	]	.	.	.	2ryy	.	.	.	.
.	.	.	.	.	.	.	.	.	.	.	16A#\LL	.	p	.	.	.	.	.	.	.	.
.	.	8A#\)	]	(8c#/J	.	.	.	8a#\)	.	.	16c#\	.	.	.	.	.	.	.	.	.	.
.	.	.	.	.	.	.	.	.	.	.	16f#\JJ	.	.	.	.	.	.	.	.	.	.
4r	.	8F#\	.	8d#\L	.	.	.	8f#\	.	.	8d#/L	16B\LL	.	.	.	.	.	.	8d#/L	4B\	.
.	.	.	.	.	.	.	.	.	.	.	.	16G#\	.	.	.	.	.	.	.	.	.
.	.	8C#\J	.	8B\J)	.	8e#/	.	8g#\J	.	.	8e#/J	16c#\	.	.	.	.	.	.	8e#/J	.	.
.	.	.	.	.	.	.	.	.	.	.	.	16B\JJ	.	.	.	.	.	.	.	.	.
*	*	*	*	*	*	*	*	*	*	*	*v	*v	*	*	*	*	*	*	*v	*v	*
=35	=35	=35	=35	=35	=35	=35	=35	=35	=35	=35	=35	=35	=35	=35	=35	=35	=35	=35	=35
!	!	!	!	!	!	!	!	!LO:TX:a:t=(xxx)	!	!	!	!	!	!	!	!	!	!	!
4F#\	.	8F#\	.	16r	.	8f#/	.	8f#/	.	4FF#/	16f#\LL	.	4r	4r	.	8F#\]	1ryy	4A#/ 4f#	.
.	.	.	.	(16c#/LL	.	.	.	.	.	.	16c#\	.	.	.	.	.	.	.	.
.	.	8r	.	16A#/	.	8r	.	8r	.	.	16A#\	.	.	.	.	8r	.	.	.
.	.	.	.	16F#/JJ)	.	.	.	.	.	.	16F#\JJ	.	.	.	.	.	.	.	.
*	*	*	*	*	*	*tremolo	*	*tremolo	*	*	*	*	*	*	*	*	*	*	*
!	!	!	!	!	!	!	!LO:DY:rj	!LO:TX:a:t=divisi	!	!	!	!	!	!	!LO:DY:t=p.	!	!	!	!
4r	.	(4F#^\	.	16r	.	32c#/LLL	p	32f#/LLL 32a#	p	(4FF#^\ 4F#	16r	.	(>8.f#/L 8.a#	(4cc#\ 4ff# 4aa#	p	(<4FF#^</ 4F#	.	4r	.
.	.	.	.	.	.	32c#/	.	32f#/ 32a#	.	.	.	.	.	.	.	.	.	.	.
.	.	.	.	(16A#/LL	.	32c#/	.	32f#/ 32a#	.	.	(16A#\LL	p	.	.	.	.	.	.	.
.	.	.	.	.	.	32c#/	.	32f#/ 32a#	.	.	.	.	.	.	.	.	.	.	.
.	.	.	.	16c#/	.	32c#/	.	32f#/ 32a#	.	.	16c#\	.	.	.	.	.	.	.	.
.	.	.	.	.	.	32c#/	.	32f#/ 32a#	.	.	.	.	.	.	.	.	.	.	.
.	.	.	.	16A#/JJ)	.	32c#/	.	32f#/ 32a#	.	.	16A#\JJ	.	16f#/Jk 16a#	.	.	.	.	.	.
.	.	.	.	.	.	32c#/JJJ	.	32f#/JJJ 32a#	.	.	.	.	.	.	.	.	.	.	.
2r	.	4E#^\	.	16r	.	32dn/LLL	.	32gn/LLL 32b	.	4EE#\ 4E#	16r	.	4gn/ 4b	4ddn\ 4ggn 4bb	.	4EE#X/ 4E#X	.	(>2dn^/	.
.	.	.	.	.	.	32d/	.	32g/ 32b	.	.	.	.	.	.	.	.	.	.	.
.	.	.	.	(16B/LL	.	32d/	.	32g/ 32b	.	.	(16B\LL)	.	.	.	.	.	.	.	.
.	.	.	.	.	.	32d/	.	32g/ 32b	.	.	.	.	.	.	.	.	.	.	.
.	.	.	.	16dn/	.	32d/	.	32g/ 32b	.	.	16dn\	.	.	.	.	.	.	.	.
.	.	.	.	.	.	32d/	.	32g/ 32b	.	.	.	.	.	.	.	.	.	.	.
!	!	!	!	!	!	!	!	!	!	!	!LO:TX:b:t=(x)	!	!	!	!	!	!	!	!
.	.	.	.	16B/JJ)	.	32d/	.	32g/ 32b	.	.	16B\JJ)	.	.	.	.	.	.	.	.
.	.	.	.	.	.	32d/	.	32g/JJJ 32b	.	.	.	.	.	.	.	.	.	.	.
!	!	!	!	!	!	!	!	!LO:TX:b:t=mo-lto-crescendo:ext=c:problem=dynamics with extention lines	!LO:HP:t=mo-lto-crescendo:ext=c	!	!	!	!	!	!	!	!	!	!
.	.	4En^\	.	16r	.	32d/	.	32g#X/LLL 32b#X	<	4EEn\ 4En	16r	.	4g#X/ 4b#X	4een\ 4gg#X 4bb#X	.	4EEn/ 4En	.	.	.
.	.	.	.	.	.	32d/	.	32g#/ 32b#	.	.	.	.	.	.	.	.	.	.	.
!	!	!	!	!	!	!	!	!	!	!	!LO:TX:t=(x)	!	!	!	!	!	!	!	!
.	.	.	.	(16en/LL	.	32d/	.	32g#/ 32b#	.	.	16e#\LL	.	.	.	.	.	.	.	.
.	.	.	.	.	.	32d/	.	32g#/ 32b#	.	.	.	.	.	.	.	.	.	.	.
.	.	.	.	16G#/	.	32d/	.	32g#/ 32b#	.	.	16G#\	.	.	.	.	.	.	.	.
.	.	.	.	.	.	32d/	.	32g#/ 32b#	.	.	.	.	.	.	.	.	.	.	.
.	.	.	.	16e/JJ)	.	32d/	.	32g#/ 32b#	.	.	16e#\JJ	.	.	.	.	.	.	.	.
.	.	.	.	.	.	32d/JJJ	.	32g#/JJJ 32b#	.	.	.	.	.	.	.	.	.	.	.
*	*	*	*	*	*	*	*	*	*	*	*	*	*	*	*	*v	*v	*	*
=36	=36	=36	=36	=36	=36	=36	=36	=36	=36	=36	=36	=36	=36	=36	=36	=36	=36	=36
!	!	!	!	!	!	!	!	!LO:TX:t=a=:color=red	!	!	!	!	!	!	!	!	!LO:TX:t=a=:color=red	!
!LO:TX:b:t=a=:color=red	!	!	!	!	!	!	!	!	!	!	!	!	!	!LO:TX:b:t=cres___cen___do.:ext=ud:problem=dynamics with extention lines	!LO:HP:t=cres___cen___do.:ext=ud	!	!	!
1r	.	8AAn/)	.	16r	.	32c#/LLL	.	32an\LLL 32cc#	.	8AAn/)	16r	.	4an/) 4cc#	4een\) 4aan 4ccc#	<	8AAn/)	8c#/)	.
.	.	.	.	.	.	32c#/	.	32a\ 32cc#	.	.	.	.	.	.	.	.	.	.
.	.	.	.	(16c#\LL	.	32c#/	.	32a\ 32cc#	.	.	(16c#\LL	.	.	.	.	.	.	.
.	.	.	.	.	.	32c#/	.	32a\ 32cc#	.	.	.	.	.	.	.	.	.	.
.	.	8r	.	16en\	.	32c#/	.	32a\ 32cc#	.	8r	16en\	.	.	.	.	8r	8r	.
.	.	.	.	.	.	32c#/	.	32a\ 32cc#	.	.	.	.	.	.	.	.	.	.
.	.	.	.	16c#\JJ)	.	32c#/	.	32a\ 32cc#	.	.	16c#\JJ)	.	.	.	.	.	.	.
.	.	.	.	.	.	32c#/JJJ	.	32a\ 32cc#	.	.	.	.	.	.	.	.	.	.
*	*	*	*	*rep	*	*	*	*	*	*	*	*	*	*8va	*	*	*	*
.	.	(4An^\	.	16r	.	32en/LLL	.	32a\ 32cc#	.	(4AA^\ 4An	16r	.	(8.a\L 8.cc#	(4een/ 4aan 4ccc#	.	(4AA^/ 4An	4r	.
.	.	.	.	.	.	32e/	.	32a\ 32cc#	.	.	.	.	.	.	.	.	.	.
*	*	*	*	*	*	*	*	*	*	*	*clefG2	*	*	*	*	*	*	*
!	!	!	!	!	!	!	!	!	!	!	!LO:TX:b:t=cres___cen___do.:ext=ud:problem=dynamics with extention lines	!LO:HP:t=cres___cen___do.:ext=ud	!	!	!	!	!	!
.	.	.	.	(16c#\LL	.	32e/	.	32a\ 32cc#	.	.	16c#/LL	<	.	.	.	.	.	.
.	.	.	.	.	.	32e/	.	32a\ 32cc#	.	.	.	.	.	.	.	.	.	.
.	.	.	.	16e\	.	32e/	.	32a\ 32cc#	.	.	16e/	.	.	.	.	.	.	.
.	.	.	.	.	.	32e/	.	32a\ 32cc#	.	.	.	.	.	.	.	.	.	.
.	.	.	.	16c#\JJ)	.	32e/	.	32a\ 32cc#	.	.	16c#/JJ	.	16a\Jk 16cc#	.	.	.	.	.
.	.	.	.	.	.	32e/JJJ	.	32a\JJJ 32cc#	.	.	.	.	.	.	.	.	.	.
*	*	*	*	*Xrep	*	*	*	*	*	*	*	*	*	*	*	*	*	*
.	.	4G#^\	.	16r	.	32fn/LLL	.	32b\LLL 32ddn	.	4GG#\ 4G#	16r	.	4b-X\ 4ddn	4ffn/ 4bb-X 4dddn	.	4GG#/ 4G#	2fn^>/	.
.	.	.	.	.	.	32f/	.	32b\ 32dd	.	.	.	.	.	.	.	.	.	.
.	.	.	.	(16dn\LL	.	32f/	.	32b\ 32dd	.	.	16dn/LL	.	.	.	.	.	.	.
.	.	.	.	.	.	32f/	.	32b\ 32dd	.	.	.	.	.	.	.	.	.	.
.	.	.	.	16fn\	.	32f/	.	32b\ 32dd	.	.	16fn/	.	.	.	.	.	.	.
.	.	.	.	.	.	32f/	.	32b\ 32dd	.	.	.	.	.	.	.	.	.	.
.	.	.	.	16d\JJ)	.	32f/	.	32b\ 32dd	.	.	16d/JJ	.	.	.	.	.	.	.
.	.	.	.	.	.	32f/	.	32b\JJJ 32dd	.	.	.	.	.	.	.	.	.	.
!	!	!	!	!	!	!	!	!	!	!	!LO:TX:a:t=(xx)	!	!	!	!	!	!	!
.	.	4Gn^\	.	16r	.	32f/	.	32b#X\LLL 32dd#X	.	4GGn\ 4Gn	16r	.	4bn\ 4dd#X	4ggn/ 4bbn 4ddd#X	.	4GGn/) 4Gn	.	.
.	.	.	.	.	.	32f/	.	32b#\ 32dd#	.	.	.	.	.	.	.	.	.	.
.	.	.	.	(16gn\LL	.	32f/	.	32b#\ 32dd#	.	.	16gn/LL	.	.	.	.	.	.	.
.	.	.	.	.	.	32f/	.	32b#\ 32dd#	.	.	.	.	.	.	.	.	.	.
.	.	.	.	16B\	.	32f/	.	32b#\ 32dd#	.	.	16Bn/	.	.	.	.	.	.	.
.	.	.	.	.	.	32f/	.	32b#\ 32dd#	.	.	.	.	.	.	.	.	.	.
.	.	.	.	16g\JJ)	.	32f/	.	32b#\ 32dd#	.	.	16g/JJ	.	.	.	.	.	.	.
.	.	.	.	.	.	32f/JJJ	.	32b#\JJJ 32dd#	.	.	.	.	.	.	.	.	.	.
=37	=37	=37	=37	=37	=37	=37	=37	=37	=37	=37	=37	=37	=37	=37	=37	=37	=37	=37
1r	.	8Cn/)	.	16r	.	32e#/LLL	.	32ccn\LLL 32een	.	8Cn\)	16r	.	4ccn\) 4een	4ggn/) 4cccn 4eeen	.	8Cn/	8e#/	.
.	.	.	.	.	.	32e#/	.	32cc\ 32ee	.	.	.	.	.	.	.	.	.	.
.	.	.	.	(16en\LL	.	32e#/	.	32cc\ 32ee	.	.	16e#/LL	.	.	.	.	.	.	.
.	.	.	.	.	.	32e#/	.	32cc\ 32ee	.	.	.	.	.	.	.	.	.	.
.	.	8r	.	16gn\	.	32e#/	.	32cc\ 32ee	.	8r	16gn/	.	.	.	.	8r	8r	.
.	.	.	.	.	.	32e#/	.	32cc\ 32ee	.	.	.	.	.	.	.	.	.	.
.	.	.	.	16e\JJ)	.	32e#/	.	32cc\ 32ee	.	.	16e#/JJ	.	.	.	.	.	.	.
.	.	.	.	.	.	32e#/JJJ	.	32cc\ 32ee	.	.	.	.	.	.	.	.	.	.
.	.	(4cn^\	.	16r	.	32gn/LLL	.	32cc\ 32ee	.	(4C\ 4cn	16r	.	8.cc\L 8.ee	8.gg/L 8.ccc 8.eee	.	(4C\ 4cn	4r	.
.	.	.	.	.	.	32g/	.	32cc\ 32ee	.	.	.	.	.	.	.	.	.	.
.	.	.	.	(16e\LL	.	32g/	.	32cc\ 32ee	.	.	16e#/LL	.	.	.	.	.	.	.
.	.	.	.	.	.	32g/	.	32cc\ 32ee	.	.	.	.	.	.	.	.	.	.
.	.	.	.	16g\	.	32g/	.	32cc\ 32ee	.	.	16g/	.	.	.	.	.	.	.
.	.	.	.	.	.	32g/	.	32cc\ 32ee	.	.	.	.	.	.	.	.	.	.
.	.	.	.	16e\JJ)	.	32g/	.	32cc\ 32ee	.	.	16e#/JJ	.	(<16cc\Jk 16ee	(16gg/Jk 16ccc 16eee	.	.	.	.
.	.	.	.	.	.	32g/JJJ	.	32cc\JJJ 32ee	[	.	.	.	.	.	.	.	.	.
*	*	*	*	*tremolo	*	*	*	*	*	*	*	*	*	*	*	*	*	*
!	!	!	!	!	!	!	!	!	!	!	!	!	!	!	!	!	!LO:TX:a:i:t=(&colon;gr. jeu&colon;)	!
.	.	4B^\	.	32g#X^\LLL	.	32g#X/LLL	.	32ee\LLL	.	4BB\ 4B	16r	.	4g#X\) 4ddn 4ee	4gg#X/) 4dddn 4eee	.	4BB\ 4B	2g#X/	.
.	.	.	.	32g#\	.	32g#/	.	32ee\	.	.	.	.	.	.	.	.	.	.
.	.	.	.	32g#\	.	32g#/	.	32ee\	.	.	16dn/LL	.	.	.	.	.	.	.
.	.	.	.	32g#\	.	32g#/	.	32ee\	.	.	.	.	.	.	.	.	.	.
.	.	.	.	32g#\	.	32dn/ 32ddn	.	32eee#\	.	.	16e#/	.	.	.	.	.	.	.
.	.	.	.	32g#\	.	32d/ 32dd	.	32eee#\	.	.	.	.	.	.	.	.	.	.
.	.	.	.	32g#\	.	32d/ 32dd	.	32eee#\	.	.	16d/JJ	.	.	.	.	.	.	.
.	.	.	.	32g#\	.	32d/JJJ 32dd	.	32eee#\JJJ	.	.	.	.	.	.	.	.	.	.
!	!	!	!	!	!	!	!	!	!	!	!LO:TX:a:i:t=4	!	!	!	!	!	!	!
.	.	4B-X^\)	.	32g#\	.	32d/LLL 32ddn	.	32eee#X\LLL	.	4BB-X\) 4B-X	16e#/LL	.	4g#\ 4dd 4ee#X	4gg#/ 4ddd 4eee#X	[	4BB-X\) 4B-X	.	.
.	.	.	.	32g#\	.	32d/ 32dd	.	32eee#\	.	.	.	.	.	.	.	.	.	.
.	.	.	.	32g#\	.	32d/ 32dd	.	32eee#\	.	.	16d/	[	.	.	.	.	.	.
.	.	.	.	32g#\	.	32d/ 32dd	.	32eee#\	.	.	.	.	.	.	.	.	.	.
.	.	.	.	32g#\	.	32d/ 32dd	.	32eee#\	.	.	16c#/	.	.	.	.	.	.	.
.	.	.	.	32g#\	.	32d/ 32dd	.	32eee#\	.	.	.	.	.	.	.	.	.	.
.	.	.	.	32g#\	.	32d/ 32dd	.	32eee#\	.	.	16d/JJ	.	.	.	.	.	.	.
.	.	.	.	32g#\JJJ	.	32d/JJJ 32dd	.	32eee#\JJJ	.	.	.	.	.	.	.	.	.	.
*	*	*	*	*Xtremolo	*	*Xtremolo	*	*Xtremolo	*	*	*	*	*	*	*	*	*	*
!!LO:PB:g=original
=38	=38	=38	=38	=38	=38	=38	=38	=38	=38	=38	=38	=38	=38	=38	=38	=38	=38	=38
*	*	*	*	*	*	*	*	*	*	*^	*	*	*	*	*	*	*^	*
*	*	*	*	*	*	*	*	*	*	*	*	*clefF4	*	*	*	*	*	*	*	*
!	!	!	!	!	!	!	!	!	!	!	!	!	!	!	!	!	!	!	!	!LO:DY:rj
!	!LO:DY:rj	!	!LO:DY:color=blue:rj	!	!LO:DY:rj	!	!LO:DY:rj	!	!LO:DY:rj	!	!	!	!	!	!	!LO:DY:rj	!	!	!	!
2.AAn/	ff	4f#\	ff	(16an\LL	ff	(16dn/LL 16an 16ff#	ff	4fff#\	ff	2AAAn/ 2AAn	2.ryy	16F#\ 16An 16dn 16f#	.	8a#\ 8ddn 8ff#	16aa#/LL 16fff#	ff	2AAn\ 2Dn 2An	2f#/ 2an 2ddn 2ff#	2rcyy	ff
.	.	.	.	16f#\	.	16ddn/	.	.	.	.	.	16F#\LL	.	.	16dddn/	.	.	.	.	.
.	.	.	.	16dn\	.	16a/	.	.	.	.	.	16A\	.	16a#/LL	16aan/	.	.	.	.	.
.	.	.	.	16An\JJ)	.	16f#/JJ)	.	.	.	.	.	16d\JJ	.	16f#/JJ	16ff#/JJ	.	.	.	.	.
.	.	8.en\L	.	16f#\LL	.	(16a/LL	.	8.eeen\L	.	.	.	4A\	.	16a#/LL	16aa/LL	.	.	.	.	.
.	.	.	.	16d\	.	16f#/	.	.	.	.	.	.	.	16f#/	16ff#/	.	.	.	.	.
.	.	.	.	16A\	.	16d/	.	.	.	.	.	.	.	16a#/	16aa/	.	.	.	.	.
.	.	16dn\Jk	.	16d\JJ	.	16f#/JJ)	.	16dddn\Jk	.	.	.	.	.	16dd/JJ	16ddd/JJ	.	.	.	.	.
!	!	!	!	!	!	!	!	!	!	!	!	!	!	!	!	!	!	!	!	!LO:HP:a
.	.	4c#\	.	4A/	.	4.f#/	.	(4ccc#\	>	4AA/ 4C# 4A#	.	16r	.	(4cc#\	16ccc#/LL	.	(>4An\	4cc#/	4f#\	>
.	.	.	.	.	.	.	.	.	.	.	.	(16F#\LL	.	.	16ff#/	.	.	.	.	.
.	.	.	.	.	.	.	.	.	.	.	.	16c#\	.	.	16cc#/	.	.	.	.	.
.	.	.	.	.	.	.	.	.	.	.	.	16f#\JJ	.	.	16ccc#/JJ	.	.	.	.	.
4GG#/	.	8d#X\L	.	4G#/	.	.	.	8bb#X\L	.	8G#/L	4GG#\	16d#X\LL	.	8b#X\L	16bb#X/LL	.	4G#\	8b#X/L	8d#X\L	.
.	.	.	.	.	.	.	.	.	.	.	.	16F#\	.	.	16dd#X/	.	.	.	.	.
.	.	8e#X\J	.	.	.	8g#/	.	8bbn\J)	]	8C#/J	.	16e#X\	.	8bn\J)	16bbn/	.	.	8bn/J	8e#X\J	]
!	!	!	!	!	!	!	!	!	!	!	!	!LO:TX:b:t=(x)	!	!	!	!	!	!	!	!
.	.	.	.	.	.	.	.	.	.	.	.	16c#\JJ)	.	.	16cc#/JJ	.	.	.	.	.
*	*	*	*	*	*	*	*	*	*	*v	*v	*	*	*	*	*	*	*v	*v	*
=39	=39	=39	=39	=39	=39	=39	=39	=39	=39	=39	=39	=39	=39	=39	=39	=39	=39	=39
1FF#X	<	(8f#\	<	2.F#/	<	(16ff#\LL	.	4.aa#X\	<	2FF#/	(16f#^\LL	.	(4.a#X\	(4.aa#X\	<	4F#\)	1c# 1f# 1a#	.
.	.	.	.	.	.	16cc#\)	<	.	.	.	16c#\	.	.	.	.	.	.	.
.	.	4A#\)	.	.	.	(16cc#\	.	.	.	.	16A#\	.	.	.	.	.	.	.
.	.	.	.	.	.	16a#X\JJ)	.	.	.	.	16F#\JJ)	.	.	.	.	.	.	.
.	.	.	.	.	.	16a#/LL	.	.	.	.	(16c#^\LL	.	.	.	.	4r	.	.
.	.	.	.	.	.	16f#/	.	.	.	.	16A#\	.	.	.	.	.	.	.
.	.	8B\	.	.	.	16f#/	.	8bb\	.	.	16F#\	.	8bn\	8bbn\	.	.	.	.
.	.	.	.	.	.	16c#/JJ	[	.	.	.	16C#\JJ)	.	.	.	.	.	.	.
!	!	!	!	!	!	!	!	!	!	!	!	!	!	!	!	!	!LO:TX:b:i:t=(&colon;8&colon;)	!
.	.	8B#X\L	.	.	.	(4f#/	>	8bb#X\L	.	2FF#/	(16A#^\LL	.	8b#X\L	8bb#X\L	.	2r	.	.
.	.	.	.	.	.	.	.	.	.	.	16F#\	.	.	.	.	.	.	.
.	[	8c#\	[	.	.	.	.	8ccc#\	[	.	16C#\	.	8cc#\	8ccc#\	[	.	.	.
.	.	.	.	.	.	.	.	.	.	.	16AA#\JJ)	.	.	.	.	.	.	.
.	>	8.e#\	>	4c#/	[	4a#/)	]	8.eee#\	>	.	(16F#^>/LL	.	8.ee#\)	8.eee#\	sf >	.	.	.
.	.	.	.	.	.	.	.	.	.	.	16C#/	.	.	.	.	.	.	.
.	.	.	.	.	.	.	.	.	.	.	16AA#/	.	.	.	.	.	.	.
.	]	16d#\Jk	]	.	.	.	.	16ddd#\Jk	]]	.	16FF#/JJ)	.	16dd#\Jk	16ddd#\Jk)	]	.	.	.
*	*	*	*	*	*	*	*	*	*	*	*	*	*	*X8va	*	*	*	*
=40	=40	=40	=40	=40	=40	=40	=40	=40	=40	=40	=40	=40	=40	=40	=40	=40	=40	=40
*	*	*	*	*	*	*	*	*	*	*	*	*	*	*	*	*	*^	*
*	*	*	*	*	*	*	*	*	*	*	*	*	*	*	*	*	*	*^	*
*	*	*	*	*	*	*	*	*	*	*	*ped	*	*	*ped	*	*	*	*2\right	*	*
!	!LO:DY:rj	!	!	!	!LO:DY:rj	!	!	!LO:TX:b:i:t=dolce	!LO:DY:t=p.	!	!	!	!	!	!	!	!	!	!	!LO:DY:rj
2GG#/	[ p	4..d#\	.	2F#/	p	(4b/	p	(4ddd#\	p	8GGG#/ 8GG#	8BB:\ 8D#: 8F#:	.	16r	4dd#\	.	2GG#/	(2.g#/	2d#\	1B	p
.	.	.	.	.	.	.	.	.	.	.	.	.	N(>16B/LL	.	.	.	.	.	.	.
.	.	.	.	.	.	.	.	.	.	8r	8r	.	16d#/	.	.	.	.	.	.	.
.	.	.	.	.	.	.	.	.	.	.	.	.	16g#/JJ	.	.	.	.	.	.	.
*	*	*	*	*	*	*	*	*	*	*	*Xped	*	*	*	*	*	*	*	*	*
.	.	.	.	.	.	4d#/	.	8ccc#\L)	.	4r	4r	.	4r	16b\LL	p	.	.	.	.	.
.	.	.	.	.	.	.	.	.	.	.	.	.	.	16dd#\	.	.	.	.	.	.
*	*	*	*	*	*	*	*	*	*	*	*	*	*	*Xped	*	*	*	*	*	*
.	.	.	.	.	.	.	.	8bb\J	.	.	.	.	.	16gg#\	.	.	.	.	.	.
!	!	!	!LO:DY:rj	!	!	!	!	!	!	!	!	!	!	!	!	!	!	!	!	!
.	.	16d#^\	p	.	.	.	.	.	.	.	.	.	.	16bb\JJN)	.	.	.	.	.	.
*	*	*	*	*	*	*	*	*	*	*	*ped	*	*	*ped	*	*	*	*	*	*
!LO:TX:b:t==B:color=red	!	!LO:TX:b:i:t=dolce	!	!	!	!	!	!	!	!	!	!	!	!	!	!	!	!	!	!
2C#/	.	(4d#\	.	2C#/	.	2e#/)	.	(4bb\	.	8CC#/ 8GG#	8C#\ 8G#	.	16r	4r	.	[2C#/	.	2e#\	.	.
.	.	.	.	.	.	.	.	.	.	.	.	.	N(>16B/LL	.	.	.	.	.	.	.
.	.	.	.	.	.	.	.	.	.	8r	8r	.	16c#/	.	.	.	.	.	.	.
.	.	.	.	.	.	.	.	.	.	.	.	.	16e#/JJ	.	.	.	.	.	.	.
*	*	*	*	*	*	*	*	*	*	*	*Xped	*	*	*	*	*	*	*	*	*
!	!	!	!	!	!	!	!	!	!	!	!	!	!	!	!	!	!LO:TX:t==B:color=red	!	!	!
.	.	8c#\L)	.	.	.	.	.	8aa#\L)	.	4r	4r	.	4r	16g#\LL	.	.	8a#/L)	.	.	.
.	.	.	.	.	.	.	.	.	.	.	.	.	.	16b\	.	.	.	.	.	.
.	.	8B\J	.	.	.	.	.	8gg#\J	.	.	.	.	.	16ee#\	.	.	8g#/J	.	.	.
.	.	.	.	.	.	.	.	.	.	.	.	.	.	16gg#\JJN)	.	.	.	.	.	.
*	*	*	*	*	*	*	*	*	*	*	*	*	*	*	*	*	*v	*v	*v	*
=41	=41	=41	=41	=41	=41	=41	=41	=41	=41	=41	=41	=41	=41	=41	=41	=41	=41	=41
*	*	*	*	*	*	*^	*	*	*	*	*	*	*	*	*	*	*	*
*	*	*	*	*	*	*	*	*	*	*	*	*ped	*	*	*ped	*	*	*	*
!	!	!	!	!	!	!	!	!	!	!	!	!	!	!	!LO:TX:t=P:ped.color=blue:problem	!	!	!	!
1F#	.	(4A#\	.	4C#/	.	4f#/	4rcyy	.	4ff#\	.	8FFF#/ 8FF#	8C#\ 8F#	.	4A#/ 4f#	(16a#\LL 16ff#	.	(>1C#]	[>1A# [>1f#	.
.	.	.	.	.	.	.	.	.	.	.	.	.	.	.	16aa#\	.	.	.	.
.	.	.	.	.	.	.	.	.	.	.	8r	8r	.	.	16ff#\	.	.	.	.
.	.	.	.	.	.	.	.	.	.	.	.	.	.	.	16cc#\JJ	.	.	.	.
*	*	*	*	*	*	*	*2\right	*	*	*	*	*	*	*	*	*	*	*	*
!	!	!LO:TX:t=P:problem=mixed beam	!	!	!	!	!	!	!	!	!	!	!	!	!	!	!	!	!
.	.	8c#\L)	.	8r	.	[2.a#/	(>2.c#\	.	(4aa#^\	.	4r	4r	.	16r	16a#/)	.	.	.	.
.	.	.	.	.	.	.	.	.	.	.	.	.	.	(16f#/LL	16r	.	.	.	.
*	*	*	*	*	*	*	*	*	*	*	*	*	*	*	*Xped	*	*	*	*
!	!	!	!	!	!	!	!	!	!	!	!	!	!	!	!LO:TX:t=P:Xped.color=blue:problem	!	!	!	!
.	.	8C#'/J	.	8C#'/	.	.	.	.	.	.	.	.	.	16c#/	8r	.	.	.	.
.	.	.	.	.	.	.	.	.	.	.	.	.	.	16A#/JJ)	.	.	.	.	.
*	*	*	*	*	*	*	*	*	*	*	*	*Xped	*	*	*	*	*	*	*
.	.	8C#^/L	.	8C#^/L	.	.	.	.	4gg#\)	.	2FF#/	16r	.	2r	2r	.	.	.	.
.	.	.	.	.	.	.	.	.	.	.	.	(16C#\LL	.	.	.	.	.	.	.
.	.	8D#^/	.	8D#^/	.	.	.	.	.	.	.	16A#\	.	.	.	.	.	.	.
.	.	.	.	.	.	.	.	.	.	.	.	16F#\JJ	.	.	.	.	.	.	.
.	.	8F#^/	.	8F#^/	.	.	.	.	8.ff#^\L	.	.	16c#\LL	.	.	.	.	.	.	.
.	.	.	.	.	.	.	.	.	.	.	.	16A#\	.	.	.	.	.	.	.
.	.	8A#^/J	.	8A#^/J	.	.	.	.	.	.	.	16F#\	.	.	.	.	.	.	.
.	.	.	.	.	.	.	.	.	16ee#\Jk	.	.	16C#\JJ)	.	.	.	.	.	.	.
*	*	*	*	*	*	*v	*v	*	*	*	*	*	*	*	*	*	*	*	*
!!LO:PB:g=original
=42	=42	=42	=42	=42	=42	=42	=42	=42	=42	=42	=42	=42	=42	=42	=42	=42	=42	=42
*	*	*	*	*	*	*	*	*	*	*	*	*	*	*	*	*	*^	*
2F#\	.	(4.c#\	.	(4.c#^/	.	2a#/])	.	4ee#\	.	4FFF#/ 4FF#	16r	.	1r	1r	.	[<2D#\)	2A#/] 2f#_	2rcyy	.
.	.	.	.	.	.	.	.	.	.	.	(16D#\LL	.	.	.	.	.	.	.	.
.	.	.	.	.	.	.	.	.	.	.	16A#\	.	.	.	.	.	.	.	.
.	.	.	.	.	.	.	.	.	.	.	16F#\JJ	.	.	.	.	.	.	.	.
.	.	.	.	.	.	.	.	8.dd#\L	.	4r	16c#\LL	.	.	.	.	.	.	.	.
.	.	.	.	.	.	.	.	.	.	.	16A#\	.	.	.	.	.	.	.	.
.	.	8B#X\	.	8B#X/	.	.	.	.	.	.	16F#\	.	.	.	.	.	.	.	.
.	.	.	.	.	.	.	.	16cc##X\Jk	.	.	16D#\JJ)	.	.	.	.	.	.	.	.
2G#\	.	(8G#\L)	.	8G#/L	.	2B#X/	.	4.dd#TT\	.	4GGG#/ 4GG#	16r	.	.	.	.	2D#\] 2G#	2f#/]	2B#X\	.
.	.	.	.	.	.	.	.	.	.	.	(16F#\LL	.	.	.	.	.	.	.	.
.	.	8F#\)	.	8F#/)	.	.	.	.	.	.	16B#X\	.	.	.	.	.	.	.	.
.	.	.	.	.	.	.	.	.	.	.	16G#\JJ	.	.	.	.	.	.	.	.
.	.	8D#\	.	8D#/	.	.	.	.	.	4r	16d#\LL	.	.	.	.	.	.	.	.
.	.	.	.	.	.	.	.	.	.	.	16B#\	.	.	.	.	.	.	.	.
!	!	!	!	!	!	!	!	!LO:N:acc=n#	!	!	!	!	!	!	!	!	!	!	!
.	.	8E#\J	.	8E#/J	.	.	.	16cc#X\LL	.	.	16G#\	.	.	.	.	.	.	.	.
.	.	.	.	.	.	.	.	16dd#\JJ	.	.	16F#\JJ)	.	.	.	.	.	.	.	.
*	*	*	*	*	*	*	*	*	*	*	*	*	*	*	*	*	*v	*v	*
=43	=43	=43	=43	=43	=43	=43	=43	=43	=43	=43	=43	=43	=43	=43	=43	=43	=43	=43
*	*	*	*	*	*	*	*	*	*	*	*	*	*	*	*	*^	*	*
2C#/	.	2C#/	.	(8C#/	.	(8c#/	.	8ee#\L	.	4CC#/ 4C#	16r	.	1r	1r	.	4G#/	[1C#	[>2c#/ 2e#	.
.	.	.	.	.	.	.	.	.	.	.	(16E#\LL	.	.	.	.	.	.	.	.
.	.	.	.	4G#/)	.	4e#/)	.	8gg#\	.	.	16G#\	.	.	.	.	.	.	.	.
.	.	.	.	.	.	.	.	.	.	.	16c#\JJ	.	.	.	.	.	.	.	.
.	.	.	.	.	.	.	.	8.ccc#\	.	4r	16Bn\LL	.	.	.	.	4Bn/	.	.	.
.	.	.	.	.	.	.	.	.	.	.	16G#\	.	.	.	.	.	.	.	.
.	.	.	.	8c#\	.	8c#/	.	.	.	.	16E#\)	.	.	.	.	.	.	.	.
.	.	.	.	.	.	.	.	16bb\Jk	.	.	16C#\JJ	.	.	.	.	.	.	.	.
2F#\	.	8F#\L	.	8f#\L	.	8f#/L	<	8.aa#\L	.	4FFF#/ 4FF#	16r	.	.	.	.	2A#/	.	(>2c#/] 2f#	.
.	.	.	.	.	.	.	.	.	.	.	(16A#\LL	.	.	.	.	.	.	.	.
.	.	8G#\	.	8g#\	.	8g#/	.	.	.	.	16c#\	.	.	.	.	.	.	.	.
.	.	.	.	.	.	.	.	16bb\Jk	.	.	16f#\JJ	.	.	.	.	.	.	.	.
.	.	8A#\	.	8a#\	.	8a#/	.	[4ccc#\	.	4r	16d#\LL	.	.	.	.	.	.	.	.
.	.	.	.	.	.	.	.	.	.	.	16c#\	.	.	.	.	.	.	.	.
.	.	8c#\J	.	8cc#\J	.	8cc#/J	[	.	.	.	16A#\)	.	.	.	.	.	.	.	.
.	.	.	.	.	.	.	.	.	.	.	16F#\JJ	.	.	.	.	.	.	.	.
=44	=44	=44	=44	=44	=44	=44	=44	=44	=44	=44	=44	=44	=44	=44	=44	=44	=44	=44	=44
2F#\	.	4.f#\	.	(4.ff#X\	.	(4.ff#\	.	8ccc#\L]	.	4FFF#/ 4FF#	16r	.	1r	1r	.	(2.F#/	1C#]	2.c#/ 2.a#	.
.	.	.	.	.	.	.	.	.	.	.	(16A#\LL	.	.	.	.	.	.	.	.
.	.	.	.	.	.	.	.	16eee#\L	.	.	16c#\	.	.	.	.	.	.	.	.
.	.	.	.	.	.	.	.	16ddd#\JJ	.	.	16a#\JJ	.	.	.	.	.	.	.	.
.	.	.	.	.	.	.	.	[4ccc#\	.	4r	16f#\LL	.	.	.	.	.	.	.	.
.	.	.	.	.	.	.	.	.	.	.	16d#\	.	.	.	.	.	.	.	.
.	.	8e#\	.	8ee#X\	.	8ee#X\	.	.	.	.	16c#\)	.	.	.	.	.	.	.	.
.	.	.	.	.	.	.	.	.	.	.	16A#\JJ	.	.	.	.	.	.	.	.
4E#\	.	8c#\L	.	8cc#\L	.	8cc#\L	.	8ccc#\L]	.	4FFF#/ 4FF#	16r	.	.	.	.	.	.	.	.
.	.	.	.	.	.	.	.	.	.	.	(16A#\LL	.	.	.	.	.	.	.	.
.	.	8A#\	.	8a#\)	.	8a#\)	.	16ff#\L	.	.	16c#\	.	.	.	.	.	.	.	.
.	.	.	.	.	.	.	.	16gg#\JJ	.	.	16f#\JJ	.	.	.	.	.	.	.	.
4E#\	.	8F#\	.	8f#\	.	8f#\	.	8aa#\L	.	4FFF#/ 4FF#	16c#\LL	.	.	.	.	8A#/L)	.	8c#/L 8f#	.
.	.	.	.	.	.	.	.	.	.	.	16A#\	.	.	.	.	.	.	.	.
.	.	8C#\J	.	16e#\L	.	8g#\J	.	8cc#\J	.	.	16B\)	.	.	.	.	8B/J	.	8c#/J 8e# 8g#	.
.	.	.	.	16d#\JJ	.	.	.	.	.	.	16G#\JJ	.	.	.	.	.	.	.	.
!!LO:PB:g=original
=45	=45	=45	=45	=45	=45	=45	=45	=45	=45	=45	=45	=45	=45	=45	=45	=45	=45	=45	=45
*	*	*	*	*	*	*	*	*^	*	*	*	*	*	*	*	*	*	*	*
*	*	*	*	*	*	*tremolo	*	*	*	*	*	*	*	*	*	*	*	*	*	*
4E#\	.	8F#\	.	16c#/	.	32a#/LLL	.	8ee#\L	4rcyy	.	4FFF#/ 4FF#	(16A#\LL	.	4r	4r	.	4A#/	4F#\	4c#/) 4f# 4a#	.
.	.	.	.	.	.	32a#/	.	.	.	.	.	.	.	.	.	.	.	.	.	.
.	.	.	.	(16c#/LL	.	32a#/	.	.	.	.	.	16c#\	.	.	.	.	.	.	.	.
.	.	.	.	.	.	32a#/	.	.	.	.	.	.	.	.	.	.	.	.	.	.
.	.	8r	.	16A#/	.	32f#/	.	16a#\L	.	.	.	16A#\	.	.	.	.	.	.	.	.
.	.	.	.	.	.	32f#/	.	.	.	.	.	.	.	.	.	.	.	.	.	.
.	.	.	.	16F#/JJ)	.	32f#/	.	16b\JJ	.	.	.	16F#\JJ)	.	.	.	.	.	.	.	.
.	.	.	.	.	.	32f#/JJJ	.	.	.	.	.	.	.	.	.	.	.	.	.	.
*	*	*	*	*	*	*	*	*tremolo	*tremolo	*	*	*	*	*	*	*	*	*	*	*
4r	.	(4F#^\	.	16r	.	32c#/LLL	.	32cc#/LLL	32cc#\LLL	.	4FF#/ 4F#	16r	.	8.f#/L 8.a#	(4cc#\ 4ff# 4aa#	.	(4FF#^/ 4F#	4rEEyy	4r	.
.	.	.	.	.	.	32c#/	.	32cc#/	32cc#\	.	.	.	.	.	.	.	.	.	.	.
.	.	.	.	(16A#/LL	.	32c#/	.	32cc#/	32cc#\	.	.	(16A#\LL	.	.	.	.	.	.	.	.
.	.	.	.	.	.	32c#/	.	32cc#/	32cc#\	.	.	.	.	.	.	.	.	.	.	.
.	.	.	.	16c#/	.	32c#/	.	32a#/	32f#\	.	.	16c#\	.	.	.	.	.	.	.	.
.	.	.	.	.	.	32c#/	.	32a#/	32f#\	.	.	.	.	.	.	.	.	.	.	.
.	.	.	.	16A#/JJ)	.	32c#/	.	32a#/	32f#\	.	.	16A#\JJ)	.	16f#/Jk 16a#	.	.	.	.	.	.
.	.	.	.	.	.	32c#/JJJ	.	32a#/JJJ	32f#\JJJ	.	.	.	.	.	.	.	.	.	.	.
2r	.	4Fn\	.	16r	.	32dn^/LLL	.	32gn/LLL 32b	2ryy	.	4EE#/ 4E#	16r	.	4gn/ 4b	4ddn\ 4ggn 4bb	.	4EE#X/ 4E#X	2rEEyy	(>2dn^/	.
.	.	.	.	.	.	32d/	.	32g/ 32b	.	.	.	.	.	.	.	.	.	.	.	.
.	.	.	.	(16B/LL	.	32d/	.	32g/ 32b	.	.	.	(16B\LL	.	.	.	.	.	.	.	.
.	.	.	.	.	.	32d/	.	32g/ 32b	.	.	.	.	.	.	.	.	.	.	.	.
.	.	.	.	16dn/	.	32d/	.	32g/ 32b	.	.	.	16dn\	.	.	.	.	.	.	.	.
.	.	.	.	.	.	32d/	.	32g/ 32b	.	.	.	.	.	.	.	.	.	.	.	.
.	.	.	.	16B/JJ)	.	32d/	.	32g/ 32b	.	.	.	16B\JJ)	.	.	.	.	.	.	.	.
.	.	.	.	.	.	32d/	.	32g/JJJ 32b	.	.	.	.	.	.	.	.	.	.	.	.
.	.	4En\)	.	16r	.	32d/	.	32g#X/LLL 32b#X	.	.	4EEn/ 4En	16r	.	4g#X/ 4b#X	4ee#\) 4gg#X 4bb#X	.	4EEn/) 4En	.	.	.
.	.	.	.	.	.	32d/	.	32g#/ 32b#	.	.	.	.	.	.	.	.	.	.	.	.
.	.	.	.	(16en/LL	.	32d/	.	32g#/ 32b#	.	.	.	(16e#\LL	.	.	.	.	.	.	.	.
.	.	.	.	.	.	32d/	.	32g#/ 32b#	.	.	.	.	.	.	.	.	.	.	.	.
.	.	.	.	16G#/	.	32d/	.	32g#/ 32b#	.	.	.	16G#\	.	.	.	.	.	.	.	.
.	.	.	.	.	.	32d/	.	32g#/ 32b#	.	.	.	.	.	.	.	.	.	.	.	.
.	.	.	.	16e/JJ)	.	32d/	.	32g#/ 32b#	.	.	.	16e#\JJ)	.	.	.	.	.	.	.	.
.	.	.	.	.	.	32d/JJJ	.	32g#/JJJ 32b#	.	.	.	.	.	.	.	.	.	.	.	.
*	*	*	*	*	*	*Xtremolo	*	*Xtremolo	*Xtremolo	*	*	*	*	*	*	*	*	*	*	*
*	*	*	*	*	*	*	*	*v	*v	*	*	*	*	*	*	*	*v	*v	*	*
!!LO:PB:g=original
!!LO:TX:t=Come sopra A=B
=46	=46	=46	=46	=46	=46	=46	=46	=46	=46	=46	=46	=46	=46	=46	=46	=46	=46	=46
!	!	!	!	!	!	!	!	!LO:TXX:t=a=:color=red	!	!	!	!	!	!	!	!	!LO:TXX:t=a=:color=red	!
!LO:TXX:b:t=a=:color=red	!	!	!	!	!	!	!	!	!	!	!	!	!	!LO:TXX:b:t=cres___cen___do.:ext=ud:problem=dynamics with extention lines	!LO:HP:t=cres___cen___do.:ext=ud	!	!	!
1ryy	.	8AAn/)yy	.	16ryy	.	32c#/LLLyy	.	32an\LLLyy 32cc#yy	.	8AAn/)yy	16ryy	.	4an/)yy 4cc#yy	4een\)yy 4aanyy 4ccc#yy	<	8AAn/)yy	8c#/)yy	.
.	.	.	.	.	.	32c#/yy	.	32a\yy 32cc#yy	.	.	.	.	.	.	.	.	.	.
.	.	.	.	(16c#\LLyy	.	32c#/yy	.	32a\yy 32cc#yy	.	.	(16c#\LLyy	.	.	.	.	.	.	.
.	.	.	.	.	.	32c#/yy	.	32a\yy 32cc#yy	.	.	.	.	.	.	.	.	.	.
.	.	8ryy	.	16en\yy	.	32c#/yy	.	32a\yy 32cc#yy	.	8ryy	16en\yy	.	.	.	.	8ryy	8ryy	.
.	.	.	.	.	.	32c#/yy	.	32a\yy 32cc#yy	.	.	.	.	.	.	.	.	.	.
.	.	.	.	16c#\JJ)yy	.	32c#/yy	.	32a\yy 32cc#yy	.	.	16c#\JJ)yy	.	.	.	.	.	.	.
.	.	.	.	.	.	32c#/JJJyy	.	32a\yy 32cc#yy	.	.	.	.	.	.	.	.	.	.
*	*	*	*	*rep	*	*	*	*	*	*	*	*	*	*8va	*	*	*	*
.	.	(4An^\yy	.	16ryy	.	32en/LLLyy	.	32a\yy 32cc#yy	.	(4AA^\yy 4Anyy	16ryy	.	(8.a\Lyy 8.cc#yy	(4eenyy/ 4aanyy 4ccc#yy	.	(4AA^/yy 4Anyy	4ryy	.
.	.	.	.	.	.	32e/yy	.	32a\yy 32cc#yy	.	.	.	.	.	.	.	.	.	.
*	*	*	*	*	*	*	*	*	*	*	*clefG2	*	*	*	*	*	*	*
!	!	!	!	!	!	!	!	!	!	!	!LO:TXX:b:t=cres___cen___do.:ext=ud:problem=dynamics with extention lines	!LO:HP:t=cres___cen___do.:ext=ud	!	!	!	!	!	!
.	.	.	.	(16c#\LLyy	.	32e/yy	.	32a\yy 32cc#yy	.	.	16c#/LLyy	<	.	.	.	.	.	.
.	.	.	.	.	.	32e/yy	.	32a\yy 32cc#yy	.	.	.	.	.	.	.	.	.	.
.	.	.	.	16e\yy	.	32e/yy	.	32a\yy 32cc#yy	.	.	16e/yy	.	.	.	.	.	.	.
.	.	.	.	.	.	32e/yy	.	32a\yy 32cc#yy	.	.	.	.	.	.	.	.	.	.
.	.	.	.	16c#\JJ)yy	.	32e/yy	.	32a\yy 32cc#yy	.	.	16c#/JJyy	.	16a\Jkyy 16cc#yy	.	.	.	.	.
.	.	.	.	.	.	32e/JJJyy	.	32a\JJJyy 32cc#yy	.	.	.	.	.	.	.	.	.	.
*	*	*	*	*Xrep	*	*	*	*	*	*	*	*	*	*	*	*	*	*
.	.	4G#^\yy	.	16ryy	.	32fn/LLLyy	.	32b\LLLyy 32ddnyy	.	4GG#\yy 4G#yy	16ryy	.	4b-X\yy 4ddnyy	4ffn/yy 4bb-Xyy 4dddnyy	.	4GG#/yy 4G#yy	2fn^>/yy	.
.	.	.	.	.	.	32f/yy	.	32b\yy 32ddyy	.	.	.	.	.	.	.	.	.	.
.	.	.	.	(16dn\LLyy	.	32f/yy	.	32b\yy 32ddyy	.	.	16dn/LLyy	.	.	.	.	.	.	.
.	.	.	.	.	.	32f/yy	.	32b\yy 32ddyy	.	.	.	.	.	.	.	.	.	.
.	.	.	.	16fn\yy	.	32f/yy	.	32b\yy 32ddyy	.	.	16fn/yy	.	.	.	.	.	.	.
.	.	.	.	.	.	32f/yy	.	32b\yy 32ddyy	.	.	.	.	.	.	.	.	.	.
.	.	.	.	16d\JJ)yy	.	32f/yy	.	32b\yy 32ddyy	.	.	16d/JJyy	.	.	.	.	.	.	.
.	.	.	.	.	.	32f/yy	.	32b\JJJyy 32ddyy	.	.	.	.	.	.	.	.	.	.
!	!	!	!	!	!	!	!	!	!	!	!LO:TXX:a:t=(xx)	!	!	!	!	!	!	!
.	.	4Gn^\yy	.	16ryy	.	32f/yy	.	32b#X\LLLyy 32dd#Xyy	.	4GGn\yy 4Gnyy	16ryy	.	4bn\yy 4dd#Xyy	4ggn/yy 4bbnyy 4ddd#Xyy	.	4GGn/)yy 4Gnyy	.	.
.	.	.	.	.	.	32f/yy	.	32b#\yy 32dd#yy	.	.	.	.	.	.	.	.	.	.
.	.	.	.	(16gn\LLyy	.	32f/yy	.	32b#\yy 32dd#yy	.	.	16gn/LLyy	.	.	.	.	.	.	.
.	.	.	.	.	.	32f/yy	.	32b#\yy 32dd#yy	.	.	.	.	.	.	.	.	.	.
.	.	.	.	16B\yy	.	32f/yy	.	32b#\yy 32dd#yy	.	.	16Bn/yy	.	.	.	.	.	.	.
.	.	.	.	.	.	32f/yy	.	32b#\yy 32dd#yy	.	.	.	.	.	.	.	.	.	.
.	.	.	.	16g\JJ)yy	.	32f/yy	.	32b#\yy 32dd#yy	.	.	16g/JJyy	.	.	.	.	.	.	.
.	.	.	.	.	.	32f/JJJyy	.	32b#\JJJyy 32dd#yy	.	.	.	.	.	.	.	.	.	.
=47	=47	=47	=47	=47	=47	=47	=47	=47	=47	=47	=47	=47	=47	=47	=47	=47	=47	=47
1ryy	.	8Cn/)yy	.	16ryy	.	32e#/LLLyy	.	32ccn\LLLyy 32eenyy	.	8Cn\)yy	16ryy	.	4ccn\)yy 4eenyy	4ggn/)yy 4cccnyy 4eeenyy	.	8Cn/yy	8e#/yy	.
.	.	.	.	.	.	32e#/yy	.	32cc\yy 32eeyy	.	.	.	.	.	.	.	.	.	.
.	.	.	.	(16en\LLyy	.	32e#/yy	.	32cc\yy 32eeyy	.	.	16e#/LLyy	.	.	.	.	.	.	.
.	.	.	.	.	.	32e#/yy	.	32cc\yy 32eeyy	.	.	.	.	.	.	.	.	.	.
.	.	8ryy	.	16gn\yy	.	32e#/yy	.	32cc\yy 32eeyy	.	8ryy	16gn/yy	.	.	.	.	8ryy	8ryy	.
.	.	.	.	.	.	32e#/yy	.	32cc\yy 32eeyy	.	.	.	.	.	.	.	.	.	.
.	.	.	.	16e\JJ)yy	.	32e#/yy	.	32cc\yy 32eeyy	.	.	16e#/JJyy	.	.	.	.	.	.	.
.	.	.	.	.	.	32e#/JJJyy	.	32cc\yy 32eeyy	.	.	.	.	.	.	.	.	.	.
.	.	(4cn^\yy	.	16ryy	.	32gn/LLLyy	.	32cc\yy 32eeyy	.	(4C\yy 4cnyy	16ryy	.	8.cc\Lyy 8.eeyy	8.gg/Lyy 8.cccyy 8.eeeyy	.	(4C\yy 4cnyy	4ryy	.
.	.	.	.	.	.	32g/yy	.	32cc\yy 32eeyy	.	.	.	.	.	.	.	.	.	.
.	.	.	.	(16e\LLyy	.	32g/yy	.	32cc\yy 32eeyy	.	.	16e#/LLyy	.	.	.	.	.	.	.
.	.	.	.	.	.	32g/yy	.	32cc\yy 32eeyy	.	.	.	.	.	.	.	.	.	.
.	.	.	.	16g\yy	.	32g/yy	.	32cc\yy 32eeyy	.	.	16g/yy	.	.	.	.	.	.	.
.	.	.	.	.	.	32g/yy	.	32cc\yy 32eeyy	.	.	.	.	.	.	.	.	.	.
.	.	.	.	16e\JJ)yy	.	32g/yy	.	32cc\yy 32eeyy	.	.	16e#/JJyy	.	(<16cc\Jkyy 16eeyy	(16gg/Jkyy 16cccyy 16eeeyy	.	.	.	.
.	.	.	.	.	.	32g/JJJyy	.	32cc\JJJyy 32eeyy	[	.	.	.	.	.	.	.	.	.
*	*	*	*	*tremolo	*	*	*	*	*	*	*	*	*	*	*	*	*	*
!	!	!	!	!	!	!	!	!	!	!	!	!	!	!	!	!	!LO:TXX:a:i:t=(&colon;gr. jeu&colon;)	!
.	.	4B^\yy	.	32g#X^\LLLyy	.	32g#X/LLLyy	.	32ee\LLLyy	.	4BB\yy 4Byy	16ryy	.	4g#X\)yy 4ddnyy 4eeyy	4gg#X/)yy 4dddnyy 4eeeyy	.	4BB\yy 4Byy	2g#X/yy	.
.	.	.	.	32g#\yy	.	32g#/yy	.	32ee\yy	.	.	.	.	.	.	.	.	.	.
.	.	.	.	32g#\yy	.	32g#/yy	.	32ee\yy	.	.	16dn/LLyy	.	.	.	.	.	.	.
.	.	.	.	32g#\yy	.	32g#/yy	.	32ee\yy	.	.	.	.	.	.	.	.	.	.
.	.	.	.	32g#\yy	.	32dn/yy 32ddnyy	.	32eee#\yy	.	.	16e#/yy	.	.	.	.	.	.	.
.	.	.	.	32g#\yy	.	32d/yy 32ddyy	.	32eee#\yy	.	.	.	.	.	.	.	.	.	.
.	.	.	.	32g#\yy	.	32d/yy 32ddyy	.	32eee#\yy	.	.	16d/JJyy	.	.	.	.	.	.	.
.	.	.	.	32g#\yy	.	32d/JJJyy 32ddyy	.	32eee#\JJJyy	.	.	.	.	.	.	.	.	.	.
!	!	!	!	!	!	!	!	!	!	!	!LO:TXX:a:i:t=4	!	!	!	!	!	!	!
.	.	4B-X^\)yy	.	32g#\yy	.	32d/LLLyy 32ddnyy	.	32eee#X\LLLyy	.	4BB-X\)yy 4B-Xyy	16e#/LLyy	.	4g#\yy 4ddyy 4ee#Xyy	4gg#/yy 4dddyy 4eee#Xyy	[	4BB-X\)yy 4B-Xyy	.	.
.	.	.	.	32g#\yy	.	32d/yy 32ddyy	.	32eee#\yy	.	.	.	.	.	.	.	.	.	.
.	.	.	.	32g#\yy	.	32d/yy 32ddyy	.	32eee#\yy	.	.	16d/yy	[	.	.	.	.	.	.
.	.	.	.	32g#\yy	.	32d/yy 32ddyy	.	32eee#\yy	.	.	.	.	.	.	.	.	.	.
.	.	.	.	32g#\yy	.	32d/yy 32ddyy	.	32eee#\yy	.	.	16c#/yy	.	.	.	.	.	.	.
.	.	.	.	32g#\yy	.	32d/yy 32ddyy	.	32eee#\yy	.	.	.	.	.	.	.	.	.	.
.	.	.	.	32g#\yy	.	32d/yy 32ddyy	.	32eee#\yy	.	.	16d/JJyy	.	.	.	.	.	.	.
.	.	.	.	32g#\JJJyy	.	32d/JJJyy 32ddyy	.	32eee#\JJJyy	.	.	.	.	.	.	.	.	.	.
*	*	*	*	*Xtremolo	*	*Xtremolo	*	*Xtremolo	*	*	*	*	*	*	*	*	*	*
=48	=48	=48	=48	=48	=48	=48	=48	=48	=48	=48	=48	=48	=48	=48	=48	=48	=48	=48
*	*	*	*	*	*	*	*	*	*	*^	*	*	*	*	*	*	*^	*
*	*	*	*	*	*	*	*	*	*	*	*	*clefF4	*	*	*	*	*	*	*	*
!	!	!	!	!	!	!	!	!	!	!	!	!	!	!	!	!	!	!	!	!LO:DY:rj
!	!LO:DY:rj	!	!LO:DY:color=blue:rj	!	!LO:DY:rj	!	!LO:DY:rj	!	!LO:DY:rj	!	!	!	!	!	!	!LO:DY:rj	!	!	!	!
2.AAn/yy	ffy	4f#\yy	ffy	(16an\LLyy	ffy	(16dn/LLyy 16anyy 16ff#yy	ffy	4fff#\yy	ffy	2AAAn/yy 2AAnyy	2.ryyyy	16F#\yy 16Anyy 16dnyy 16f#yy	.	8a#\yy 8ddnyy 8ff#yy	16aa#/LLyy 16fff#yy	ffy	2AAn\yy 2Dnyy 2Anyy	2f#/yy 2anyy 2ddnyy 2ff#yy	2rcyy	ffy
.	.	.	.	16f#\yy	.	16ddn/yy	.	.	.	.	.	16F#\LLyy	.	.	16dddn/yy	.	.	.	.	.
.	.	.	.	16dn\yy	.	16a/yy	.	.	.	.	.	16A\yy	.	16a#/LLyy	16aan/yy	.	.	.	.	.
.	.	.	.	16An\JJ)yy	.	16f#/JJ)yy	.	.	.	.	.	16d\JJyy	.	16f#/JJyy	16ff#/JJyy	.	.	.	.	.
.	.	8.en\Lyy	.	16f#\LLyy	.	(16a/LLyy	.	8.eeen\Lyy	.	.	.	4A\yy	.	16a#/LLyy	16aa/LLyy	.	.	.	.	.
.	.	.	.	16d\yy	.	16f#/yy	.	.	.	.	.	.	.	16f#/yy	16ff#/yy	.	.	.	.	.
.	.	.	.	16A\yy	.	16d/yy	.	.	.	.	.	.	.	16a#/yy	16aa/yy	.	.	.	.	.
.	.	16dn\Jkyy	.	16d\JJyy	.	16f#/JJ)yy	.	16dddn\Jkyy	.	.	.	.	.	16dd/JJyy	16ddd/JJyy	.	.	.	.	.
!	!	!	!	!	!	!	!	!	!	!	!	!	!	!	!	!	!	!	!	!LO:HP:a
.	.	4c#\yy	.	4A/yy	.	4.f#/yy	.	(4ccc#\yy	>	4AA/yy 4C#yy 4A#yy	.	16ryy	.	(4cc#\yy	16ccc#/LLyy	.	(>4An\yy	4cc#/yy	4f#\yy	>
.	.	.	.	.	.	.	.	.	.	.	.	(16F#\LLyy	.	.	16ff#/yy	.	.	.	.	.
.	.	.	.	.	.	.	.	.	.	.	.	16c#\yy	.	.	16cc#/yy	.	.	.	.	.
.	.	.	.	.	.	.	.	.	.	.	.	16f#\JJyy	.	.	16ccc#/JJyy	.	.	.	.	.
4GG#/yy	.	8d#X\Lyy	.	4G#/yy	.	.	.	8bb#X\Lyy	.	8G#/Lyy	4GG#\yy	16d#X\LLyy	.	8b#X\Lyy	16bb#X/LLyy	.	4G#\yy	8b#X/Lyy	8d#X\Lyy	.
.	.	.	.	.	.	.	.	.	.	.	.	16F#\yy	.	.	16dd#X/yy	.	.	.	.	.
.	.	8e#X\Jyy	.	.	.	8g#/yy	.	8bbn\J)yy	]	8C#/Jyy	.	16e#X\yy	.	8bn\J)yy	16bbn/yy	.	.	8bn/Jyy	8e#X\Jyy	]
!	!	!	!	!	!	!	!	!	!	!	!	!LO:TXX:b:t=(x)	!	!	!	!	!	!	!	!
.	.	.	.	.	.	.	.	.	.	.	.	16c#\JJ)yy	.	.	16cc#/JJyy	.	.	.	.	.
*	*	*	*	*	*	*	*	*	*	*v	*v	*	*	*	*	*	*	*v	*v	*
=49	=49	=49	=49	=49	=49	=49	=49	=49	=49	=49	=49	=49	=49	=49	=49	=49	=49	=49
1FF#Xyy	<	(8f#\yy	<	2.F#/yy	<	(16ff#\LLyy	.	4.aa#X\yy	<	2FF#/yy	(16f#^\LLyy	.	(4.a#X\yy	(4.aa#X\yy	<	4F#\)yy	1c#yy 1f#yy 1a#yy	.
.	.	.	.	.	.	16cc#\)yy	<	.	.	.	16c#\yy	.	.	.	.	.	.	.
.	.	4A#\)yy	.	.	.	(16cc#\yy	.	.	.	.	16A#\yy	.	.	.	.	.	.	.
.	.	.	.	.	.	16a#X\JJ)yy	.	.	.	.	16F#\JJ)yy	.	.	.	.	.	.	.
.	.	.	.	.	.	16a#/LLyy	.	.	.	.	(16c#^\LLyy	.	.	.	.	4ryy	.	.
.	.	.	.	.	.	16f#/yy	.	.	.	.	16A#\yy	.	.	.	.	.	.	.
.	.	8B\yy	.	.	.	16f#/yy	.	8bb\yy	.	.	16F#\yy	.	8bn\yy	8bbn\yy	.	.	.	.
.	.	.	.	.	.	16c#/JJyy	[	.	.	.	16C#\JJ)yy	.	.	.	.	.	.	.
!	!	!	!	!	!	!	!	!	!	!	!	!	!	!	!	!	!LO:TXX:b:i:t=(&colon;8&colon;)	!
.	.	8B#X\Lyy	.	.	.	(4f#/yy	>	8bb#X\Lyy	.	2FF#/yy	(16A#^\LLyy	.	8b#X\Lyy	8bb#X\Lyy	.	2ryy	.	.
.	.	.	.	.	.	.	.	.	.	.	16F#\yy	.	.	.	.	.	.	.
.	[	8c#\yy	[	.	.	.	.	8ccc#\yy	[	.	16C#\yy	.	8cc#\yy	8ccc#\yy	[	.	.	.
.	.	.	.	.	.	.	.	.	.	.	16AA#\JJ)yy	.	.	.	.	.	.	.
.	>	8.e#\yy	>	4c#/yy	[	4a#/)yy	]	8.eee#\yy	>	.	(16F#^>/LLyy	.	8.ee#\)yy	8.eee#\yy	sfy >	.	.	.
.	.	.	.	.	.	.	.	.	.	.	16C#/yy	.	.	.	.	.	.	.
.	.	.	.	.	.	.	.	.	.	.	16AA#/yy	.	.	.	.	.	.	.
.	]	16d#\Jkyy	]	.	.	.	.	16ddd#\Jkyy	]]	.	16FF#/JJ)yy	.	16dd#\Jkyy	16ddd#\Jk)yy	]	.	.	.
*	*	*	*	*	*	*	*	*	*	*	*	*	*	*X8va	*	*	*	*
=50	=50	=50	=50	=50	=50	=50	=50	=50	=50	=50	=50	=50	=50	=50	=50	=50	=50	=50
*	*	*	*	*	*	*	*	*	*	*	*	*	*	*	*	*	*^	*
*	*	*	*	*	*	*	*	*	*	*	*	*	*	*	*	*	*	*^	*
*	*	*	*	*	*	*	*	*	*	*	*pedy	*	*	*pedy	*	*	*	*2\right	*	*
!	!LO:DY:rj	!	!	!	!LO:DY:rj	!	!	!LO:TXX:b:i:t=dolce	!LO:DY:t=p.	!	!	!	!	!	!	!	!	!	!	!LO:DY:rj
2GG#/yy	[ py	4..d#\yy	.	2F#/yy	py	(4b/yy	py	(4ddd#\yy	py	8GGG#/yy 8GG#yy	8BB:\yy 8D#:yy 8F#:yy	.	16ryy	4dd#\yy	.	2GG#/yy	(2.g#/yy	2d#\yy	1Byy	py
.	.	.	.	.	.	.	.	.	.	.	.	.	N(>16B/LLyy	.	.	.	.	.	.	.
.	.	.	.	.	.	.	.	.	.	8ryy	8ryy	.	16d#/yy	.	.	.	.	.	.	.
.	.	.	.	.	.	.	.	.	.	.	.	.	16g#/JJyy	.	.	.	.	.	.	.
*	*	*	*	*	*	*	*	*	*	*	*Xpedy	*	*	*	*	*	*	*	*	*
.	.	.	.	.	.	4d#/yy	.	8ccc#\L)yy	.	4ryy	4ryy	.	4ryy	16b\LLyy	py	.	.	.	.	.
.	.	.	.	.	.	.	.	.	.	.	.	.	.	16dd#\yy	.	.	.	.	.	.
*	*	*	*	*	*	*	*	*	*	*	*	*	*	*Xpedy	*	*	*	*	*	*
.	.	.	.	.	.	.	.	8bb\Jyy	.	.	.	.	.	16gg#\yy	.	.	.	.	.	.
!	!	!	!LO:DY:rj	!	!	!	!	!	!	!	!	!	!	!	!	!	!	!	!	!
.	.	16d#^\yy	py	.	.	.	.	.	.	.	.	.	.	16bb\JJN)yy	.	.	.	.	.	.
*	*	*	*	*	*	*	*	*	*	*	*pedy	*	*	*pedy	*	*	*	*	*	*
!LO:TXX:b:t==B:color=red	!	!LO:TXX:b:i:t=dolce	!	!	!	!	!	!	!	!	!	!	!	!	!	!	!	!	!	!
2C#/yy	.	(4d#\yy	.	2C#/yy	.	2e#/)yy	.	(4bb\yy	.	8CC#/yy 8GG#yy	8C#\yy 8G#yy	.	16ryy	4ryy	.	[2C#/yy	.	2e#\yy	.	.
.	.	.	.	.	.	.	.	.	.	.	.	.	N(>16B/LLyy	.	.	.	.	.	.	.
.	.	.	.	.	.	.	.	.	.	8ryy	8ryy	.	16c#/yy	.	.	.	.	.	.	.
.	.	.	.	.	.	.	.	.	.	.	.	.	16e#/JJyy	.	.	.	.	.	.	.
*	*	*	*	*	*	*	*	*	*	*	*Xpedy	*	*	*	*	*	*	*	*	*
!	!	!	!	!	!	!	!	!	!	!	!	!	!	!	!	!	!LO:TXX:t==B:color=red	!	!	!
.	.	8c#\L)yy	.	.	.	.	.	8aa#\L)yy	.	4ryy	4ryy	.	4ryy	16g#\LLyy	.	.	8a#/L)yy	.	.	.
.	.	.	.	.	.	.	.	.	.	.	.	.	.	16b\yy	.	.	.	.	.	.
.	.	8B\Jyy	.	.	.	.	.	8gg#\Jyy	.	.	.	.	.	16ee#\yy	.	.	8g#/Jyy	.	.	.
.	.	.	.	.	.	.	.	.	.	.	.	.	.	16gg#\JJN)yy	.	.	.	.	.	.
*	*	*	*	*	*	*	*	*	*	*	*	*	*	*	*	*	*v	*v	*v	*
=51	=51	=51	=51	=51	=51	=51	=51	=51	=51	=51	=51	=51	=51	=51	=51	=51	=51	=51
*	*	*	*	*	*	*	*	*	*	*	*clefG2	*	*	*	*	*	*	*
*tremolo	*	*	*	*tremolo	*	*tremolo	*	*	*	*	*ped	*	*	*ped	*	*	*	*
!LO:TX:a:t=||||	!	!	!	!	!	!	!	!	!	!	!	!	!	!	!	!	!	!
8F#|\L	.	8A#\L	.	32C#/LLL	.	32A#/LLL	p	8ff#\	.	8FFF#:/L 8FF#:	8a#:\L 8dd#:	.	8A#/ 8f#	8a#\ 8ff#	.	4F#\)	4f#/	.
.	.	.	.	32C#/	.	32A#/	.	.	.	.	.	.	.	.	.	.	.	.
.	.	.	.	32C#/	.	32A#/	.	.	.	.	.	.	.	.	.	.	.	.
.	.	.	.	32C#/	.	32A#/	.	.	.	.	.	.	.	.	.	.	.	.
*	*	*	*	*	*	*	*	*tremolo	*	*	*	*	*	*	*	*	*	*
!	!	!	!	!	!	!	!	!	!LO:DY:a:rj	!LO:N:head=invis	!	!	!	!	!	!	!	!
8F#|\	.	8C#\ 8F#	p	32C#/	.	32A#/	.	32c#/LLL	p	8FFF#:/ 8FF#:	8a#:\ 8dd#:	.	8r	8A#:/L 8c#:	.	.	.	.
.	.	.	.	32C#/	.	32A#/	.	32c#/	.	.	.	.	.	.	.	.	.	.
.	.	.	.	32C#/	.	32A#/	.	32c#/	.	.	.	.	.	.	.	.	.	.
.	.	.	.	32C#/	.	32A#/JJJ	.	32c#/	.	.	.	.	.	.	.	.	.	.
!	!	!	!	!	!	!LO:N:vis=2	!	!	!	!LO:N:head=invis	!	!	!	!	!	!	!	!
8F#|\	.	8C#\ 8F#	.	32C#/	.	32A#/LLL 32f#	.	32d#/	.	8FFF#:/ 8FF#:	8a#:\ 8dd#:	.	4r	8A#:/ 8c#: 8d#:	.	4r	4r	.
.	.	.	.	32C#/	.	32A#/ 32f#	.	32d#/	.	.	.	.	.	.	.	.	.	.
.	.	.	.	32C#/	.	32A#/ 32f#	.	32d#/	.	.	.	.	.	.	.	.	.	.
.	.	.	.	32C#/	.	32A#/ 32f#	.	32d#/	.	.	.	.	.	.	.	.	.	.
!	!	!	!	!	!	!	!	!	!	!LO:N:head=invis	!	!	!	!	!	!	!	!
8F#|\J	.	8C#\J 8F#	.	32C#/	.	32A#/ 32f#	.	32e#/	.	8FFF#:/J 8FF#:	8a#:\J 8dd#:	.	.	8A#:/J 8c#: 8e#:	.	.	.	.
.	.	.	.	32C#/	.	32A#/ 32f#	.	32e#/	.	.	.	.	.	.	.	.	.	.
.	.	.	.	32C#/	.	32A#/ 32f#	.	32e#/	.	.	.	.	.	.	.	.	.	.
.	.	.	.	32C#/	.	32A#/ 32f#	.	32e#/JJJ	.	.	.	.	.	.	.	.	.	.
*rep	*	*tremolo	*	*	*	*	*	*	*	*tremolo	*tremolo	*	*	*	*	*	*	*
8F#|\L	.	8C#\L 8F#	.	32C#/	.	32A#/ 32f#	.	32f#/LLL	.	8FFF#/L 8FF#	8a#:\L 8dd#:	.	8r	8A#:/L 8c#: 8f#:	.	2r	2r	.
.	.	.	.	32C#/	.	32A#/ 32f#	.	32f#/	.	.	.	.	.	.	.	.	.	.
.	.	.	.	32C#/	.	32A#/ 32f#	.	32f#/	.	.	.	.	.	.	.	.	.	.
.	.	.	.	32C#/	.	32A#/ 32f#	.	32f#/	.	.	.	.	.	.	.	.	.	.
8F#|\	.	8C#\ 8F#	.	32C#/	.	32A#/ 32f#	.	32g#/	.	8FFF#/ 8FF#	8a#\ 8dd#	.	8A#:/L 8c#:	8f#/ 8g#	.	.	.	.
.	.	.	.	32C#/	.	32A#/ 32f#	.	32g#/	.	.	.	.	.	.	.	.	.	.
.	.	.	.	32C#/	.	32A#/ 32f#	.	32g#/	.	.	.	.	.	.	.	.	.	.
.	.	.	.	32C#/	.	32A#/ 32f#	.	32g#/	.	.	.	.	.	.	.	.	.	.
8F#|\	.	8C#\ 8F#	.	32C#/	.	32A#/ 32f#	.	32a#/	.	8FFF#/ 8FF#	8a#\ 8dd#	.	8A#/ 8c#	8f#/ 8a#	.	.	.	.
.	.	.	.	32C#/	.	32A#/ 32f#	.	32a#/	.	.	.	.	.	.	.	.	.	.
.	.	.	.	32C#/	.	32A#/ 32f#	.	32a#/	.	.	.	.	.	.	.	.	.	.
.	.	.	.	32C#/	.	32A#/ 32f#	.	32a#/	.	.	.	.	.	.	.	.	.	.
8F#|\J	.	8C#\J 8F#	.	32C#/	.	32A#/ 32f#	.	32b/	.	8FFF#/J 8FF#	8a#\J 8dd#	.	8A#/J 8c#	8f#/J 8b	.	.	.	.
.	.	.	.	32C#/	.	32A#/ 32f#	.	32b/	.	.	.	.	.	.	.	.	.	.
.	.	.	.	32C#/	.	32A#/ 32f#	.	32b/	.	.	.	.	.	.	.	.	.	.
.	.	.	.	32C#/JJJ	.	32A#/JJJ 32f#	.	32b/JJJ	.	.	.	.	.	.	.	.	.	.
*Xrep	*	*	*	*	*	*	*	*	*	*Xtremolo	*Xtremolo	*	*	*	*	*	*	*
=52	=52	=52	=52	=52	=52	=52	=52	=52	=52	=52	=52	=52	=52	=52	=52	=52	=52	=52
*	*	*	*	*	*	*	*	*	*	*	*Xped	*	*	*Xped	*	*	*	*
*rep	*	*	*	*	*	*	*	*	*	*rep	*rep	*	*	*	*	*	*	*
!	!	!	!	!	!	!	!	!	!	!	!LO:TX:b:t=cres---cen---do:ext=cd:problem=dynamics with extention lines	!LO:HP:t=cres---cen---do:ext=cd	!	!	!	!	!	!
8F#|\L	.	8C#\L 8F#	.	32c#\LLL	.	32A#/LLL 32f#	.	32cc#\LLL	.	8FFF#:/L 8FF#:	8a#:\L 8dd#:	<	8A#:/L 8c#:	8f#:/ 8a#: 8cc#:	.	1r	1r	.
.	.	.	.	32c#\	.	32A#/ 32f#	.	32cc#\	.	.	.	.	.	.	.	.	.	.
.	.	.	.	32c#\	.	32A#/ 32f#	.	32cc#\	.	.	.	.	.	.	.	.	.	.
.	.	.	.	32c#\	.	32A#/ 32f#	.	32cc#\	.	.	.	.	.	.	.	.	.	.
*	*	*	*	*	*	*	*	*	*	*	*ped	*	*	*ped	*	*	*	*
!	!	!	!	!	!	!	!	!LO:TX:b:t=cres---cen-do:ext=cd:problem=dynamics with extention lines	!LO:HP:t=cres---cen-do:ext=cd	!	!	!	!	!LO:TX:a:t=cres---cen--do:ext=ct:problem=dynamics with extention lines	!LO:HP:a:t=cres---cen--do:ext=ct	!	!	!
8F#|\	.	8C#\ 8F#	.	32c#\	.	32A#/ 32f#	.	32a#\	<	8FFF#:/ 8FF#:	8a#:\ 8dd#:	.	8A#:/ 8c#:	8f#:/L 8a#:	<	.	.	.
.	.	.	.	32c#\	.	32A#/ 32f#	.	32a#\	.	.	.	.	.	.	.	.	.	.
.	.	.	.	32c#\	.	32A#/ 32f#	.	32a#\	.	.	.	.	.	.	.	.	.	.
.	.	.	.	32c#\	.	32A#/ 32f#	.	32a#\	.	.	.	.	.	.	.	.	.	.
8F#|\	.	8C#\ 8F#	.	32c#\	.	32A#/ 32f#	.	32b\	.	8FFF#:/ 8FF#:	8a#:\ 8dd#:	.	8A#:/ 8c#:	8f#:/ 8b:	.	.	.	.
.	.	.	.	32c#\	.	32A#/ 32f#	.	32b\	.	.	.	.	.	.	.	.	.	.
.	.	.	.	32c#\	.	32A#/ 32f#	.	32b\	.	.	.	.	.	.	.	.	.	.
.	.	.	.	32c#\	.	32A#/ 32f#	.	32b\	.	.	.	.	.	.	.	.	.	.
8F#|\J	.	8C#\ 8F#	.	32c#\	.	32A#/ 32f#	.	32cc#\	.	8FFF#:/J 8FF#:	8a#:\J 8dd#:	.	8A#:/J 8c#:	8f#:/J 8a#: 8cc#:	.	.	.	.
.	.	.	.	32c#\	.	32A#/ 32f#	.	32cc#\	.	.	.	.	.	.	.	.	.	.
.	.	.	.	32c#\	.	32A#/ 32f#	.	32cc#\	.	.	.	.	.	.	.	.	.	.
.	.	.	.	32c#\	.	32A#/JJJ 32f#	.	32cc#\JJJ	.	.	.	.	.	.	.	.	.	.
8F#|\L	.	8C#\ 8F#	.	32c#\	.	32a#/LLL	.	32dd#\LLL	.	8FFF#/L 8FF#	8a#:\L 8dd#:	.	8A#:/L 8c#:	8f#:/L 8a#: 8dd#:	.	.	.	.
.	.	.	.	32c#\	.	32a#/	.	32dd#\	.	.	.	.	.	.	.	.	.	.
.	.	.	.	32c#\	.	32a#/	.	32dd#\	.	.	.	.	.	.	.	.	.	.
.	.	.	.	32c#\	.	32a#/	.	32dd#\	.	.	.	.	.	.	.	.	.	.
8F#|\	.	8C#\ 8F#	.	32c#\	.	32a#/	.	32ee#\	.	8FFF#/ 8FF#	8a#\ 8dd#	.	8A#:/ 8c#: 8e#:	8a#:/ 8cc#: 8ee#:	.	.	.	.
.	.	.	.	32c#\	.	32a#/	.	32ee#\	.	.	.	.	.	.	.	.	.	.
.	.	.	.	32c#\	.	32a#/	.	32ee#\	.	.	.	.	.	.	.	.	.	.
.	.	.	.	32c#\	.	32a#/	.	32ee#\	.	.	.	.	.	.	.	.	.	.
8F#|\	.	8C#\ 8F#	.	32c#\	.	32a#/	.	32ff#\	.	8FFF#/ 8FF#	8a#\ 8dd#	.	8A#:/ 8c#: 8f#:	8a#:/ 8cc#: 8ff#:	.	.	.	.
.	.	.	.	32c#\	.	32a#/	.	32ff#\	.	.	.	.	.	.	.	.	.	.
.	.	.	.	32c#\	.	32a#/	.	32ff#\	.	.	.	.	.	.	.	.	.	.
.	.	.	.	32c#\	.	32a#/	.	32ff#\	.	.	.	.	.	.	.	.	.	.
8F#|\J	.	8C#\J 8F#	.	32c#\	.	32a#/	.	32gg#\	.	8FFF#/J 8FF#	8a#\J 8dd#	.	8A#:/J 8c#: 8g#:	8a#:/J 8cc#: 8ff#: 8gg#:	.	.	.	.
.	.	.	.	32c#\	.	32a#/	.	32gg#\	.	.	.	.	.	.	.	.	.	.
.	.	.	.	32c#\	.	32a#/	.	32gg#\	.	.	.	.	.	.	.	.	.	.
.	.	.	.	32c#\JJJ	.	32a#/JJJ	.	32gg#\JJJ	.	.	.	.	.	.	.	.	.	.
*Xrep	*	*	*	*	*	*	*	*	*	*Xrep	*Xrep	*	*	*	*	*	*	*
*Xtremolo	*	*	*	*	*	*	*	*	*	*	*	*	*	*	*	*	*	*
=53	=53	=53	=53	=53	=53	=53	=53	=53	=53	=53	=53	=53	=53	=53	=53	=53	=53	=53
*	*	*	*	*	*	*	*	*	*	*	*tremolo	*	*	*Xped	*	*	*	*
*	*	*	*	*	*	*	*	*	*	*rep	*Xped	*	*	*	*	*	*	*
1ryy	.	8C#\L 8F#	.	32c#\LLL	.	32f#/LLL 32a#	.	32aa#\LLL	.	8FFF#/L 8FF#	8a#\L 8dd#	.	8A#:/L 8c#: 8f#:	8a#:/ 8cc#: 8ff#: 8aa#:	.	1r	1r	.
.	.	.	.	32c#\	.	32f#/ 32a#	.	32aa#\	.	.	.	.	.	.	.	.	.	.
.	.	.	.	32c#\	.	32f#/ 32a#	.	32aa#\	.	.	.	.	.	.	.	.	.	.
.	.	.	.	32c#\	.	32f#/ 32a#	.	32aa#\	.	.	.	.	.	.	.	.	.	.
*	*	*	*	*	*	*	*	*	*	*	*ped	*	*	*ped	*	*	*	*
.	.	8C#\ 8F#	.	32c#\	.	32f#/ 32a#	.	32cc#\	.	8FFF#/ 8FF#	8a#\ 8dd#	.	8A#:/ 8c#: 8f#:	8a#:/L 8cc#:	.	.	.	.
.	.	.	.	32c#\	.	32f#/ 32a#	.	32cc#\	.	.	.	.	.	.	.	.	.	.
.	.	.	.	32c#\	.	32f#/ 32a#	.	32cc#\	.	.	.	.	.	.	.	.	.	.
.	.	.	.	32c#\	.	32f#/ 32a#	.	32cc#\	.	.	.	.	.	.	.	.	.	.
.	.	8C#\ 8F#	.	32c#\	.	32f#/ 32a#	.	32dd#\	.	8FFF#/ 8FF#	8a#\ 8dd#	.	8A#:/ 8c#: 8f#:	8a#:/ 8cc#: 8dd#:	.	.	.	.
.	.	.	.	32c#\	.	32f#/ 32a#	.	32dd#\	.	.	.	.	.	.	.	.	.	.
.	.	.	.	32c#\	.	32f#/ 32a#	.	32dd#\	.	.	.	.	.	.	.	.	.	.
.	.	.	.	32c#\	.	32f#/ 32a#	.	32dd#\	.	.	.	.	.	.	.	.	.	.
.	.	8C#\ 8F#	.	32c#\	.	32f#/ 32a#	.	32ee#\	.	8FFF#/J 8FF#	8a#\J 8dd#	.	8A#:/J 8c#: 8e#:	8a#:/J 8cc#: 8ee#:	.	.	.	.
.	.	.	.	32c#\	.	32f#/ 32a#	.	32ee#\	.	.	.	.	.	.	.	.	.	.
.	.	.	.	32c#\	.	32f#/ 32a#	.	32ee#\	.	.	.	.	.	.	.	.	.	.
.	.	.	.	32c#\	.	32f#/ 32a#	.	32ee#\JJJ	.	.	.	.	.	.	.	.	.	.
*	*	*	*	*	*	*	*	*	*	*	*Xtremolo	*	*	*	*	*	*	*
.	.	8C#\ 8F#	.	32c#\	.	32f#/ 32a#	.	32ff#\LLL	.	8FFF#/L 8FF#	8a#\L 8dd#	[	8A#/L 8c# 8f#	8a#\L 8cc# 8ff#	.	.	.	.
.	.	.	.	32c#\	.	32f#/ 32a#	.	32ff#\	.	.	.	.	.	.	.	.	.	.
.	.	.	.	32c#\	.	32f#/ 32a#	.	32ff#\	.	.	.	.	.	.	.	.	.	.
.	.	.	.	32c#\	.	32f#/ 32a#	.	32ff#\	.	.	.	.	.	.	.	.	.	.
.	.	8C#\ 8F#	.	32c#\	.	32f#/ 32a#	.	32gg#\	.	8FFF#/ 8FF#	8a#\ 8dd#	.	8c#/ 8f# 8g#	8a#\ 8ff# 8gg#	.	.	.	.
.	.	.	.	32c#\	.	32f#/ 32a#	.	32gg#\	.	.	.	.	.	.	.	.	.	.
.	.	.	.	32c#\	.	32f#/ 32a#	.	32gg#\	.	.	.	.	.	.	.	.	.	.
.	.	.	.	32c#\JJJ	.	32f#/JJJ 32a#	.	32gg#\	.	.	.	.	.	.	.	.	.	.
.	.	8C#\ 8F#	.	32f#\LLL	.	32cc#\LLL	.	32aa#\	[	8FFF#/ 8FF#	8a#\ 8dd# 8ee#	.	8c#/ 8f# 8a#	8a#\ 8ff# 8aa#	[	.	.	.
.	.	.	.	32f#\	.	32cc#\	.	32aa#\	.	.	.	.	.	.	.	.	.	.
.	.	.	.	32f#\	.	32cc#\	.	32aa#\	.	.	.	.	.	.	.	.	.	.
.	.	.	.	32f#\	.	32cc#\	.	32aa#\	.	.	.	.	.	.	.	.	.	.
.	.	8C#\J 8F#	.	32f#\	.	32cc#\	.	32bb\	.	8FFF#/J 8FF#	8a#\J 8dd# 8gg#	.	8c#/J 8f# 8b	8a#\J 8ff# 8bb	.	.	.	.
.	.	.	.	32f#\	.	32cc#\	.	32bb\	.	.	.	.	.	.	.	.	.	.
.	.	.	.	32f#\	.	32cc#\	.	32bb\	.	.	.	.	.	.	.	.	.	.
.	.	.	.	32f#\JJJ	.	32cc#\JJJ	.	32bb\JJJ	.	.	.	.	.	.	.	.	.	.
*	*	*Xtremolo	*	*	*	*	*	*	*	*Xrep	*	*	*	*	*	*	*	*
!!LO:PB:g=original
=54	=54	=54	=54	=54	=54	=54	=54	=54	=54	=54	=54	=54	=54	=54	=54	=54	=54	=54
8F#\	.	8C#\ 8F#	.	32a#\LLL	.	32cc#\LLL	.	32ccc#\LLL	.	8FFF#/ 8FF#	8ryy	<	8c#/ 8f# 8a#	8cc#\ 8ff# 8ccc#	.	1r	1r	.
.	.	.	.	32a#\	.	32cc#\	.	32ccc#\	.	.	.	.	.	.	.	.	.	.
.	.	.	.	32a#\	.	32cc#\	.	32ccc#\	.	.	.	.	.	.	.	.	.	.
.	.	.	.	32a#\	.	32cc#\	.	32ccc#\	.	.	.	.	.	.	.	.	.	.
!LO:TX:t=colVcelli	!	!	!	!	!	!	!	!	!	!	!	!	!	!	!	!	!	!
8F#^\Lyy	.	8F#^\L	.	32f#\	.	32cc#\	.	32ff#\	<	8FF#/L	8dd#\L	.	8A#/L 8c# 8f#	8a#\L 8cc# 8ff#	.	.	.	.
.	.	.	.	32f#\	.	32cc#\	.	32ff#\	.	.	.	.	.	.	.	.	.	.
.	.	.	.	32f#\	.	32cc#\	.	32ff#\	.	.	.	.	.	.	.	.	.	.
.	.	.	.	32f#\	.	32cc#\	<	32ff#\	.	.	.	.	.	.	.	.	.	.
8E#^\yy	.	8E#^\	.	32e#\	<	32cc#\	.	32gg#\	.	8EE#:/ 8FF#:	8cc#:\ 8dd#:	.	8c#/ 8f# 8g#	8cc#\ 8ff# 8gg#	.	.	.	.
.	.	.	.	32e#\	.	32cc#\	.	32gg#\	.	.	.	.	.	.	.	.	.	.
.	.	.	.	32e#\	.	32cc#\	.	32gg#\	.	.	.	.	.	.	.	.	.	.
.	.	.	.	32e#\	.	32cc#\	.	32gg#\	.	.	.	.	.	.	.	.	.	.
8D#^\Jyy	.	8D#^\J	.	32d#\	.	32cc#\	.	32aa#\	.	8DD#:/J 8FF#:	8b:\J 8dd#:	.	8c#/J 8f# 8a#	8cc#\J 8ff# 8aa#	.	.	.	.
.	.	.	.	32d#\	.	32cc#\	.	32aa#\	.	.	.	.	.	.	.	.	.	.
.	.	.	.	32d#\	.	32cc#\	.	32aa#\	.	.	.	.	.	.	.	.	.	.
.	.	.	.	32d#\JJJ	.	32cc#\JJJ	.	32aa#\JJJ	.	.	.	.	.	.	.	.	.	.
8C#^/Lyy	.	8C#^/L	.	32c#/LLL	.	32cc#\LLL	.	32bb\LLL	.	8CC#:/L 8FF#:	8a#:\L 8dd#:	.	8c#/L 8f# 8b	8cc#\L 8ff# 8bb	.	.	.	.
.	.	.	.	32c#/	.	32cc#\	.	32bb\	.	.	.	.	.	.	.	.	.	.
.	.	.	.	32c#/	.	32cc#\	.	32bb\	.	.	.	.	.	.	.	.	.	.
.	.	.	.	32c#/	.	32cc#\	.	32bb\	.	.	.	.	.	.	.	.	.	.
8BB^/yy	.	8BB^/	.	32B/	.	32cc#\	.	32ccc#\	.	8BBB:/ 8FF#:	8g#:\ 8dd#:	.	8c#/ 8f# 8cc#	8cc#\ 8ff# 8ccc#	.	.	.	.
.	.	.	.	32B/	.	32cc#\	.	32ccc#\	.	.	.	.	.	.	.	.	.	.
.	.	.	.	32B/	.	32cc#\	.	32ccc#\	.	.	.	.	.	.	.	.	.	.
.	.	.	.	32B/	.	32cc#\JJJ	.	32ccc#\	.	.	.	.	.	.	.	.	.	.
8AA#^/yy	.	8AA#^/	.	32A#/	.	32ff#\LLL	.	32ddd#\	.	8AAA#/ 8FF#	8f#\ 8dd#	.	8f#/ 8cc# 8dd#	8ff#\ 8ccc# 8ddd#	.	.	.	.
.	.	.	.	32A#/	.	32ff#\	.	32ddd#\	.	.	.	.	.	.	.	.	.	.
.	.	.	.	32A#/	.	32ff#\	.	32ddd#\	.	.	.	.	.	.	.	.	.	.
.	.	.	.	32A#/	.	32ff#\	.	32ddd#\	.	.	.	.	.	.	.	.	.	.
8GG#^/Jyy	.	8GG#^/J	.	32c#/	[	32gg#\	.	32eee#\	.	8GGG#/J 8FF#	8e#\J 8dd#	[	8f#/J 8b 8ee#	8ccc#\J 8eee#	.	.	.	.
.	.	.	.	32c#/	.	32gg#\	.	32eee#\	.	.	.	.	.	.	.	.	.	.
.	.	.	.	32c#/	.	32gg#\	.	32eee#\	.	.	.	.	.	.	.	.	.	.
.	.	.	.	32c#/JJJ	.	32gg#\JJJ	[	32eee#\JJJ	[	.	.	.	.	.	.	.	.	.
!!LO:PB:g=original
=55	=55	=55	=55	=55	=55	=55	=55	=55	=55	=55	=55	=55	=55	=55	=55	=55	=55	=55
*	*	*	*	*	*	*	*	*	*	*	*	*	*	*8va	*	*	*	*
*	*	*	*	*	*	*	*	*	*	*	*	*	*	*	*	*	*^	*
*	*	*	*	*	*	*	*	*	*	*tremolo	*tremolo	*	*2\right	*ped	*	*	*	*	*
*	*	*	*	*	*	*	*	*	*	*	*ped	*	*	*	*	*	*	*	*
!	!LO:DY:rj	!	!LO:DY:rj	!	!LO:DY:rj	!	!LO:DY:rj	!	!LO:DY:rj	!	!	!LO:DY:t=ff.:rj	!	!	!LO:DY:rj	!	!LO:TX:b:i:t=(&colon;gr. j&colon;)	!	!LO:DY:rj
2FF#/yy	fffy	2FF#/	fff	32f#\LLL	fff	32cc#\LLL 32aa#	fff	32fff#\LLL	fff	32FFF#/LLL 32CC#	32dd#\LLL 32ff# 32aa#	ff	2f#\ 2a# 2cc# 2ff#	2aa#\ 2ccc# 2fff#	fff	[>1FF# [>1C# [>1F#	[>1ff#	[<1f# [>1a#	ff
.	.	.	.	32f#\	.	32cc#\ 32aa#	.	32fff#\	.	32FF#/	32a#\	.	.	.	.	.	.	.	.
.	.	.	.	32f#\	.	32cc#\ 32aa#	.	32fff#\	.	32FFF#/ 32CC#	32dd#\ 32ff# 32aa#	.	.	.	.	.	.	.	.
.	.	.	.	32f#\	.	32cc#\ 32aa#	.	32fff#\	.	32FF#/	32a#\	.	.	.	.	.	.	.	.
.	.	.	.	32f#\	.	32cc#\ 32aa#	.	32fff#\	.	32FFF#/ 32CC#	32dd#\ 32ff# 32aa#	.	.	.	.	.	.	.	.
.	.	.	.	32f#\	.	32cc#\ 32aa#	.	32fff#\	.	32FF#/	32a#\	.	.	.	.	.	.	.	.
.	.	.	.	32f#\	.	32cc#\ 32aa#	.	32fff#\	.	32FFF#/ 32CC#	32dd#\ 32ff# 32aa#	.	.	.	.	.	.	.	.
.	.	.	.	32f#\	.	32cc#\ 32aa#	.	32fff#\	.	32FF#/	32a#\	.	.	.	.	.	.	.	.
.	.	.	.	32f#\	.	32cc#\ 32aa#	.	32fff#\	.	32FFF#/ 32CC#	32dd#\ 32ff# 32aa#	.	.	.	.	.	.	.	.
.	.	.	.	32f#\	.	32cc#\ 32aa#	.	32fff#\	.	32FF#/	32a#\	.	.	.	.	.	.	.	.
.	.	.	.	32f#\	.	32cc#\ 32aa#	.	32fff#\	.	32FFF#/ 32CC#	32dd#\ 32ff# 32aa#	.	.	.	.	.	.	.	.
.	.	.	.	32f#\	.	32cc#\ 32aa#	.	32fff#\	.	32FF#/	32a#\	.	.	.	.	.	.	.	.
.	.	.	.	32f#\	.	32cc#\ 32aa#	.	32fff#\	.	32FFF#/ 32CC#	32dd#\ 32ff# 32aa#	.	.	.	.	.	.	.	.
.	.	.	.	32f#\	.	32cc#\ 32aa#	.	32fff#\	.	32FF#/	32a#\	.	.	.	.	.	.	.	.
.	.	.	.	32f#\	.	32cc#\ 32aa#	.	32fff#\	.	32FFF#/ 32CC#	32dd#\ 32ff# 32aa#	.	.	.	.	.	.	.	.
.	.	.	.	32f#\JJJ	.	32cc#\JJJ 32aa#	.	32fff#\JJJ	.	32FF#/JJJ	32a#\JJJ	.	.	.	.	.	.	.	.
*	*	*	*	*	*	*	*	*	*	*rep	*rep	*	*	*	*	*	*	*	*
4FF#/yy	.	4FF#/	.	32c#\LLL	.	32a#\LLL 32ff#	.	32ddd#\LLL	.	32FFF#/LLL 32CC#	32dd#\LLL 32ff# 32aa#	.	4f#/ 4a# 4dd#	4ff#^/ 4aa# 4ddd#	.	.	.	.	.
.	.	.	.	32c#\	.	32a#\ 32ff#	.	32ddd#\	.	32FF#/	32a#\	.	.	.	.	.	.	.	.
.	.	.	.	32c#\	.	32a#\ 32ff#	.	32ddd#\	.	32FFF#/ 32CC#	32dd#\ 32ff# 32aa#	.	.	.	.	.	.	.	.
.	.	.	.	32c#\	.	32a#\ 32ff#	.	32ddd#\	.	32FF#/	32a#\	.	.	.	.	.	.	.	.
.	.	.	.	32c#\	.	32a#\ 32ff#	.	32ddd#\	.	32FFF#/ 32CC#	32dd#\ 32ff# 32aa#	.	.	.	.	.	.	.	.
.	.	.	.	32c#\	.	32a#\ 32ff#	.	32ddd#\	.	32FF#/	32a#\	.	.	.	.	.	.	.	.
.	.	.	.	32c#\	.	32a#\ 32ff#	.	32ddd#\	.	32FFF#/ 32CC#	32dd#\ 32ff# 32aa#	.	.	.	.	.	.	.	.
.	.	.	.	32c#\	.	32a#\ 32ff#	.	32ddd#\JJJ	.	32FF#/	32a#\	.	.	.	.	.	.	.	.
4FF#/yy	.	4FF#/	.	32c#\	.	32a#\ 32ff#	.	32ccc#\LLL	.	32FFF#/ 32CC#	32dd#\ 32ff# 32aa#	.	4f#/ 4a# 4cc#	4ff#^/ 4aa# 4ccc#	.	.	.	.	.
.	.	.	.	32c#\	.	32a#\ 32ff#	.	32ccc#\	.	32FF#/	32a#\	.	.	.	.	.	.	.	.
.	.	.	.	32c#\	.	32a#\ 32ff#	.	32ccc#\	.	32FFF#/ 32CC#	32dd#\ 32ff# 32aa#	.	.	.	.	.	.	.	.
.	.	.	.	32c#\	.	32a#\ 32ff#	.	32ccc#\	.	32FF#/	32a#\	.	.	.	.	.	.	.	.
.	.	.	.	32c#\	.	32a#\ 32ff#	.	32ccc#\	.	32FFF#/ 32CC#	32dd#\ 32ff# 32aa#	.	.	.	.	.	.	.	.
.	.	.	.	32c#\	.	32a#\ 32ff#	.	32ccc#\	.	32FF#/	32a#\	.	.	.	.	.	.	.	.
.	.	.	.	32c#\	.	32a#\ 32ff#	.	32ccc#\	.	32FFF#/ 32CC#	32dd#\ 32ff# 32aa#	.	.	.	.	.	.	.	.
.	.	.	.	32c#\JJJ	.	32a#\JJJ 32ff#	.	32ccc#\JJJ	.	32FF#/JJJ	32a#\JJJ	.	.	.	.	.	.	.	.
*	*	*	*	*	*	*	*	*	*	*Xrep	*Xrep	*	*	*	*	*	*	*	*
*	*	*	*	*	*	*	*	*	*	*	*	*	*	*	*	*	*v	*v	*
*	*	*	*	*	*	*	*	*	*	*	*	*	*	*X8va	*	*	*	*
!!LO:PB:g=original
=56	=56	=56	=56	=56	=56	=56	=56	=56	=56	=56	=56	=56	=56	=56	=56	=56	=56	=56
*	*	*	*	*	*	*	*	*	*	*	*	*	*	*	*	*	*^	*
*	*	*	*	*	*	*	*	*	*	*rep	*rep	*	*	*	*	*rep	*	*	*
4FF#/yy	.	4FF#/	.	32f#\LLL	.	32cc#\LLL	.	32aa#\LLL	.	32FFF#/LLL 32CC#	32dd#\LLL 32ff# 32aa#	.	4f#/ 4a#	4cc#^\ 4ff# 4aa#	.	1FF#_> 1C#_> 1F#_>	2ff#/]	2f#\_< 2a#]	.
.	.	.	.	32f#\	.	32cc#\	.	32aa#\	.	32FF#/	32a#\	.	.	.	.	.	.	.	.
.	.	.	.	32f#\	.	32cc#\	.	32aa#\	.	32FFF#/ 32CC#	32dd#\ 32ff# 32aa#	.	.	.	.	.	.	.	.
.	.	.	.	32f#\	.	32cc#\	.	32aa#\	.	32FF#/	32a#\	.	.	.	.	.	.	.	.
.	.	.	.	32f#\	.	32cc#\	.	32aa#\	.	32FFF#/ 32CC#	32dd#\ 32ff# 32aa#	.	.	.	.	.	.	.	.
.	.	.	.	32f#\	.	32cc#\	.	32aa#\	.	32FF#/	32a#\	.	.	.	.	.	.	.	.
.	.	.	.	32f#\	.	32cc#\	.	32aa#\	.	32FFF#/ 32CC#	32dd#\ 32ff# 32aa#	.	.	.	.	.	.	.	.
.	.	.	.	32f#\JJJ	.	32cc#\	.	32aa#\JJJ	.	32FF#/	32a#\	.	.	.	.	.	.	.	.
4FF#/yy	.	4FF#/	.	32A#/LLL	.	32cc#\	.	32ff#\LLL	.	32FFF#/ 32CC#	32dd#\ 32ff# 32aa#	.	4f#/ 4a#	4cc#^\ 4ff#	.	.	.	.	.
.	.	.	.	32A#/	.	32cc#\	.	32ff#\	.	32FF#/	32a#\	.	.	.	.	.	.	.	.
.	.	.	.	32A#/	.	32cc#\	.	32ff#\	.	32FFF#/ 32CC#	32dd#\ 32ff# 32aa#	.	.	.	.	.	.	.	.
.	.	.	.	32A#/	.	32cc#\	.	32ff#\	.	32FF#/	32a#\	.	.	.	.	.	.	.	.
.	.	.	.	32A#/	.	32cc#\	.	32ff#\	.	32FFF#/ 32CC#	32dd#\ 32ff# 32aa#	.	.	.	.	.	.	.	.
.	.	.	.	32A#/	.	32cc#\	.	32ff#\	.	32FF#/	32a#\	.	.	.	.	.	.	.	.
.	.	.	.	32A#/	.	32cc#\	.	32ff#\	.	32FFF#/ 32CC#	32dd#\ 32ff# 32aa#	.	.	.	.	.	.	.	.
.	.	.	.	32A#/JJJ	.	32cc#\JJJ	.	32ff#\JJJ	.	32FF#/JJJ	32a#\JJJ	.	.	.	.	.	.	.	.
4FF#/yy	.	4FF#/	.	32A#/LLL	.	32f#/LLL	.	32dd#\LLL	.	32FFF#/LLL 32CC#	32dd#\LLL 32ff# 32aa#	.	4f#/	(4dd#^\	.	.	(>4dd#/	2f#\]	.
.	.	.	.	32A#/	.	32f#/	.	32dd#\	.	32FF#/	32a#\	.	.	.	.	.	.	.	.
.	.	.	.	32A#/	.	32f#/	.	32dd#\	.	32FFF#/ 32CC#	32dd#\ 32ff# 32aa#	.	.	.	.	.	.	.	.
.	.	.	.	32A#/	.	32f#/	.	32dd#\	.	32FF#/	32a#\	.	.	.	.	.	.	.	.
.	.	.	.	32A#/	.	32f#/	.	32dd#\	.	32FFF#/ 32CC#	32dd#\ 32ff# 32aa#	.	.	.	.	.	.	.	.
.	.	.	.	32A#/	.	32f#/	.	32dd#\	.	32FF#/	32a#\	.	.	.	.	.	.	.	.
.	.	.	.	32A#/	.	32f#/	.	32dd#\	.	32FFF#/ 32CC#	32dd#\ 32ff# 32aa#	.	.	.	.	.	.	.	.
.	.	.	.	32A#/	.	32f#/	.	32dd#\JJJ	.	32FF#/	32a#\	.	.	.	.	.	.	.	.
4FF#/yy	.	4FF#/	.	32A#/	.	32f#/	.	32cc#\LLL	.	32FFF#/ 32CC#	32dd#\ 32ff# 32aa#	.	4r	8cc#\L	.	.	8cc#/L	.	.
.	.	.	.	32A#/	.	32f#/	.	32cc#\	.	32FF#/	32a#\	.	.	.	.	.	.	.	.
.	.	.	.	32A#/	.	32f#/	.	32cc#\	.	32FFF#/ 32CC#	32dd#\ 32ff# 32aa#	.	.	.	.	.	.	.	.
.	.	.	.	32A#/	.	32f#/	.	32cc#\	.	32FF#/	32a#\	.	.	.	.	.	.	.	.
.	.	.	.	32A#/	.	32f#/	.	32a#\	.	32FFF#/ 32CC#	32dd#\ 32ff# 32aa#	.	.	8a#\J)	.	.	8a#/J	.	.
.	.	.	.	32A#/	.	32f#/	.	32a#\	.	32FF#/	32a#\	.	.	.	.	.	.	.	.
.	.	.	.	32A#/	.	32f#/	.	32a#\	.	32FFF#/ 32CC#	32dd#\ 32ff# 32aa#	.	.	.	.	.	.	.	.
.	.	.	.	32A#/JJJ	.	32f#/JJJ	.	32a#\JJJ	.	32FF#/JJJ	32a#\JJJ	.	.	.	.	.	.	.	.
*	*	*	*	*	*	*	*	*	*	*Xrep	*Xrep	*	*	*	*	*	*	*	*
*	*	*	*	*	*	*	*	*	*	*Xtremolo	*Xtremolo	*	*	*	*	*Xrep	*	*	*
=57	=57	=57	=57	=57	=57	=57	=57	=57	=57	=57	=57	=57	=57	=57	=57	=57	=57	=57	=57
8FF#/	.	8FF#/	.	8A#/	.	8c#/	.	8f#/	.	8FFF#/ 8CC#	8dd#\ 8ff# 8aa#	.	1r	8f#/	.	8FF#/] 8C#] 8F#]	8f#/)	8f#\	.
8r	.	8r	.	8r	.	8r	.	8r	.	8r	8r	.	.	8r	.	8r	8r	8rcyy	.
4D#^\	.	4F#^\	.	4F#^/	.	4f#^/	.	4f#^/	.	4DD#^/ 4FF# 4D#	4dd#^\ 4ff#	.	.	4f#^/	.	((4DD#^/ 4FF# 4D#	[>4A#^/ [>4f#	4rcyy	.
4C#^/	.	4E#^\	.	4F#^/	.	4e#^/	.	4A#^/ 4f#	.	4CC#^/ 4FF# 4C#	4cc#^\ 4dd# 4ff#	.	.	4e#^/ 4f#	.	((4CC#^/)) 4FF# 4C#	4A#^/] (>4e# 4f#_	2rcyy	.
4BB^/	.	4D#^\	.	4F#^/	.	4d#^/	.	4B/ 4f#	.	4BBB^/ 4FF# 4BB	4b^\ 4dd# 4gg#	.	.	4d#/ 4f#	.	4BBB^/)) 4FF# 4BB	4B^/ 4d#) 4f#_	.	.
*	*	*	*	*	*	*	*	*	*	*	*	*	*	*	*	*	*v	*v	*
!!LO:PB:g=original
=58	=58	=58	=58	=58	=58	=58	=58	=58	=58	=58	=58	=58	=58	=58	=58	=58	=58	=58
2AA#^/	.	2C#/	.	2F#^/	.	2f#^/	.	2c#^/	.	2CC#/ 2AA#	2a#^^\ 2dd#	.	2r	2c#^^/ 2f#	.	(2AA#^/	[2c#^/ 2f#_	.
.	.	.	.	.	.	.	.	.	.	8qqGGG#/	.	.	.	.	.	.	.	.
2GG#^/	.	2GG#^TT/	.	2C#^/	.	2c#^>/ 2f#	.	2B^TT/	.	2GG#TT/	2a#^^\ 2dd#	.	2BTT/	2c#^^/ 2f#	.	2C#^/)	2c#^/] 2f#]	.
.	.	16qqFF#TTT/LL	.	.	.	.	.	16qqA#/LL	.	16qqFF#TTT/LL	.	.	16qqA#TTT/LL	.	.	.	.	.
.	.	16qqGG#TTT/JJ	.	.	.	.	.	16qqB/JJ	.	16qqGG#TTT/JJ	.	.	16qqBTTT/JJ	.	.	.	.	.
=59	=59	=59	=59	=59	=59	=59	=59	=59	=59	=59	=59	=59	=59	=59	=59	=59	=59	=59
!LO:TX:b:i:t=Koniec.	!	!	!	!	!	!	!	!	!	!	!	!	!	!	!	!	!	!
1FF#;	.	1FF#;	.	1C#;	.	1c#; 1f#	.	1A#;	.	1FF#;	1a#; 1dd#	.	1A#;	1f#;	.	1FF#^; 1C#	1A#; 1f#	.
==	==	==	==	==	==	==	==	==	==	==	==	==	==	==	==	==	==	==
*-	*-	*-	*-	*-	*-	*-	*-	*-	*-	*-	*-	*-	*-	*-	*-	*-	*-	*-
!!!system-decoration: {(s1,s2)}[(s3,s4,s5,s6)]s7,s8,s9,s10,s11
!!!RDF**kern: < = below
!!!RDF**kern: > = above
!!!RDF**kern: | = vertical stroke
!!!RDF**kern: N = linked
!!!RDF**kern: @ = marked note, color=blue
!!!ENC: Mateusz Solarz
!!!END: 2021-09-20
!!!ENC: Marta Chmielewska
!!!END: 2021-10-19
